!!!!SEGMENT: pl-sa--154-a-iv-4--002_anonim--missa-gloria.krn
!!!cenid: 17xx:1521
!!!COM: Anonim
!!!COM-rismID:
!!!CDT:
!!!CNT:
!!!OPR: Missa
!!!OTL: Gloria
!!!OMV: 002
!!!PDT: 1767
!!!AGN: Sacred; Mass
!!!SMS-siglum: PL-SA
!!!SMS-shelfmark: 154/A IV 4
!!!SMS-shelfwork: 001-002 M
!!!SMS-variant: Canto. PL-Sa 154.A.IV.4:0002,0005; Baſso PL-Sa 154.A.IV.4:0004,0007; Violino Primo PL-Sa 154.A.IV.4:0010-0012; Violino 2do. PL-Sa 154.A.IV.4:0014-0015; Organo. PL-Sa 154.A.IV.4:0022-0023
!!!SMS-altvar: Canto PL-Sa 154.A.IV.4:0025-0026; Baſso PL-Sa 154.A.IV.4:0029-0030; Violino Primo PL-Sa 154.A.IV.4:0033-0034; Violino 2do PL-Sa 154.A.IV.4:0037-0038; Organo PL-Sa 154.A.IV.4:0041-0042
!!!NIFC-rismSourceID: 1001035514
!!!NIFC-islandoraID:
!!!URL-pdf-islandora:
!!!URL-scan: https://bc.bdsandomierz.pl/dlibra/publication/1540/edition/1508/content @EN{Scan on Cyfrowa Biblioteka Diecezjalna w Sandomierzu} @PL{Skany w portalu Cyfrowa Biblioteka Diecezjalna w Sandomierzu}
!!!ONB-nifc: UWAGA: części Mszy: 1. Kyrie, 2. Gloria, 3. Patrem, 4. Sanctus, 5. Agnus. Uwaga: część Sanctus zawiera Benedictus
!!!AIN: 1 bass 2 clrno 1 organ 1 soprn 2 violn
!!!key: G
**kern	**fba	**dynam	**kern	**dynam	**kern	**dynam	**kern	**text	**kern	**text	**kern	**kern
*	*	*	*group3	*	*group3	*	*group2	*	*group2	*	*group1	*group1
*part7	*part7	*part7	*part6	*part6	*part5	*part5	*part4	*part4	*part3	*part3	*part2	*part1
*staff7	*	*	*staff6	*	*staff5	*	*staff4	*staff4	*staff3	*staff3	*staff2	*staff1
*IGcont	*	*	*IGacmp	*	*IGacmp	*	*IGsolo	*	*IGsolo	*	*IGacmp	*IGacmp
*ICklav	*	*	*ICstr	*	*ICstr	*	*ICvox	*	*ICvox	*	*ICbras	*ICbras
*Iorgan	*	*	*Ivioln	*	*Ivioln	*	*Ibass	*	*Isoprn	*	*Iclrno	*Iclrno
*I"Organo.	*	*	*I"Violino 2do.	*	*I"Violino Primo	*	*I"Baſso	*	*I"Canto.	*	*I"Clarino 2do Ex	*I"Clarino 1.mo ex
*I'org	*	*	*I'vl II	*	*I'vl I	*	*I'B	*	*I'C	*	*I'clno II	*I'clno I
*clefF4	*	*	*clefG2	*	*clefG2	*	*clefF4	*	*clefC2	*	*clefG2	*clefG2
*	*	*	*	*	*	*	*	*	*	*	*ITrd-1c-2	*ITrd-1c-2
*k[f#]	*	*	*k[f#]	*	*k[f#3f#]	*	*k[f#]	*	*k[f#]	*	*k[f#c#]	*k[f#c#]
*G:	*	*	*G:	*	*G:	*	*G:	*	*G:	*	*G:	*G:
*M4/4	*	*	*M4/4	*	*M4/4	*	*M4/4	*	*M4/4	*	*M4/4	*M4/4
*met(C.)	*	*	*met(C.)	*	*met(C.)	*	*met(C.)	*	*met(C.)	*	*met(C.)	*met(C.)
*2\right	*	*	*2\right	*	*2\right	*	*2\right	*	*2\right	*	*2\right	*2\right
=1	=1	=1	=1	=1	=1	=1	=1	=1	=1	=1	=1	=1
!	!	!	!LO:TX:t=P:problem=przy kluczu f# ff#	!	!LO:TX:t=P:problem=przy kluczu f# ff#	!	!	!	!LO:TX:t=P:problem=błędny zapis klucza [mezzosopranowy]	!	!	!
!LO:TX:a:t=ſolo	!	!	!	!	!	!	!LO:TX:t=P:problem=brak oznaczenia tempa	!	!LO:TX:t=P:problem=brak oznaczenia tempa	!	!	!
!LO:TX:a:B:t=Vivace:rj	!	!	!LO:TX:a:B:t=allo	!	!LO:TX:a:B:t=Allo:rj	!	!	!	!LO:CL:ed	!	!LO:TX:t=P:problem=brak oznaczenia tempa	!LO:TX:t=P:problem=brak oznaczenia tempa
*	*	*	*	*	*	*	*	*	*clefC1	*	*	*
8G\L	.	.	8B/L 8d	.	8g/	.	00r	.	00r	.	8gg\L	8bb\L
8G\	.	.	8B/ 8d	.	4gg\	.	.	.	.	.	8gg\	8bb\
8G\	.	.	8B/ 8d	.	.	.	.	.	.	.	8gg\	8bb\
8G\J	.	.	8B/J 8d	.	16dd\LL	.	.	.	.	.	8gg\J	8bb\J
.	.	.	.	.	16b\JJ	.	.	.	.	.	.	.
8G\L	.	.	8B/L 8d	.	8g/L	.	.	.	.	.	4gg\	4bb\
8G\	.	.	8B/ 8d	.	8g/	.	.	.	.	.	.	.
8G\	.	.	8B/ 8d	.	8g/	.	.	.	.	.	4r	4r
8G\J	.	.	8B/J 8d	.	8g/J	.	.	.	.	.	.	.
=2	=2	=2	=2	=2	=2	=2	=2	=2	=2	=2	=2	=2
!	!	!	!LO:SIC:v:s=8A/L:n=1:t=?	!	!	!	!	!	!	!	!	!
8F#\L	.	.	8B/L 8d	.	8f#/	.	.	.	.	.	8ff#\L	8aa\L
!	!	!	!LO:SIC:v:s=8A/:n=1:t=?	!	!	!	!	!	!	!	!	!
8F#\	.	.	8B/ 8d	.	4dd\	.	.	.	.	.	8ff#\	8aa\
!	!	!	!LO:SIC:v:s=8A/:n=1:t=?	!	!	!	!	!	!	!	!	!
8F#\	.	.	8B/ 8d	.	.	.	.	.	.	.	8ff#\	8aa\
!	!	!	!LO:SIC:v:s=8A/:n=1:t=?	!	!	!	!	!	!	!	!	!
8F#\J	.	.	8B/J 8d	.	16a/LL	.	.	.	.	.	8ff#\J	8aa\J
.	.	.	.	.	16f#/JJ	.	.	.	.	.	.	.
!	!	!	!LO:SIC:v:s=8A/:n=1:t=?	!	!	!	!	!	!	!	!	!
8F#\L	.	.	8B/L 8d	.	8d/L	.	.	.	.	.	4ff#\	4aa\
!	!	!	!LO:SIC:v:s=8A/:n=1:t=?	!	!	!	!	!	!	!	!	!
8F#\	.	.	8B/ 8d	.	8d/	.	.	.	.	.	.	.
!	!	!	!LO:SIC:v:s=8A/:n=1:t=?	!	!	!	!	!	!	!	!	!
8F#\	.	.	8B/ 8d	.	8d/	.	.	.	.	.	4r	4r
!	!	!	!LO:SIC:v:s=8A/:n=1:t=?	!	!	!	!	!	!	!	!	!
8F#\J	.	.	8B/J 8d	.	8d/J	.	.	.	.	.	.	.
=3	=3	=3	=3	=3	=3	=3	=3	=3	=3	=3	=3	=3
4G\	.	.	4B/ 4d	.	16g/LL	.	.	.	.	.	1r	1r
.	.	.	.	.	16g/	.	.	.	.	.	.	.
.	.	.	.	.	16g/	.	.	.	.	.	.	.
.	.	.	.	.	16g/JJ	.	.	.	.	.	.	.
4r	.	.	4r	.	16cc/LL	.	.	.	.	.	.	.
.	.	.	.	.	16cc/	.	.	.	.	.	.	.
.	.	.	.	.	16cc/	.	.	.	.	.	.	.
.	.	.	.	.	16cc/JJ	.	.	.	.	.	.	.
2r	.	.	16g/LL	.	16b\LL	.	.	.	.	.	.	.
.	.	.	16g/	.	16b\	.	.	.	.	.	.	.
.	.	.	16g/	.	16b\	.	.	.	.	.	.	.
.	.	.	16g/JJ	.	16b\JJ	.	.	.	.	.	.	.
.	.	.	16cc/LL	.	16ee\LL	.	.	.	.	.	.	.
.	.	.	16cc/	.	16ee\	.	.	.	.	.	.	.
.	.	.	16cc/	.	16ee\	.	.	.	.	.	.	.
.	.	.	16cc/JJ	.	16ee\JJ	.	.	.	.	.	.	.
=4	=4	=4	=4	=4	=4	=4	=4	=4	=4	=4	=4	=4
16G\LL	.	.	16b\LL	.	16dd\LL	.	.	.	.	.	8r	8r
16G\	.	.	16b\	.	16dd\	.	.	.	.	.	.	.
16G\	.	.	16b\	.	16dd\	.	.	.	.	.	16dd\LL	16dd\LL
16G\JJ	.	.	16b\JJ	.	16dd\JJ	.	.	.	.	.	16dd\J	16dd\J
16G\LL	.	.	16gg\LL	.	16bb\LL	.	.	.	.	.	8dd\	8dd\
16G\	.	.	16gg\	.	16bb\	.	.	.	.	.	.	.
16G\	.	.	16gg\	.	16bb\	.	.	.	.	.	8dd\J	8dd\J
16G\JJ	.	.	16gg\JJ	.	16bb\JJ	.	.	.	.	.	.	.
16d\LL	.	.	16ff#\LL	.	16aa\LL	.	.	.	.	.	4dd\	4dd\
16d\	.	.	16ff#\	.	16aa\	.	.	.	.	.	.	.
16d\	.	.	16ff#\	.	16aa\	.	.	.	.	.	.	.
16d\JJ	.	.	16ff#\JJ	.	16aa\JJ	.	.	.	.	.	.	.
16d\LL	.	.	16aa\LL	.	16ccc\LL	.	.	.	.	.	4r	4r
16d\	.	.	16aa\	.	16ccc\	.	.	.	.	.	.	.
16d\	.	.	16aa\	.	16ccc\	.	.	.	.	.	.	.
16d\JJ	.	.	16aa\JJ	.	16ccc\JJ	.	.	.	.	.	.	.
=5	=5	=5	=5	=5	=5	=5	=5	=5	=5	=5	=5	=5
*	*	*	*	*	*Xtuplet	*	*	*	*	*	*	*
!	!	!	!	!	!LO:TX:t=P:global:problem=klamra łukowa	!	!	!	!	!	!	!
8G\L	.	.	8gg\L	.	24bb\LL	.	0r	.	0r	.	4dd\	4dd\
.	.	.	.	.	24aa\	.	.	.	.	.	.	.
.	.	.	.	.	24gg\JJ	.	.	.	.	.	.	.
8G\	.	.	16dd\L	.	(16ff#\LL	.	.	.	.	.	.	.
*	*	*	*	*	*custos:dd	*	*	*	*	*	*	*
!	!	!	!	!	!LO:TX:t=P:problem=wszystkie custos użyte jako łamanie pięciolinii	!	!	!	!	!	!	!
.	.	.	16b\JJ	.	16gg\JJ)	.	.	.	.	.	.	.
!	!	!	!	!	!LO:LB:g=original	!	!	!	!	!	!	!
8G\	.	.	16dd\LL	.	(16.ff#\LL	.	.	.	.	.	4r	4r
.	.	.	16b\	.	.	.	.	.	.	.	.	.
.	.	.	.	.	32gg\K)	.	.	.	.	.	.	.
8G\J	.	.	16dd\	.	(16.ff#\	.	.	.	.	.	.	.
.	.	.	16b\JJ	.	.	.	.	.	.	.	.	.
.	.	.	.	.	32gg\JJk)	.	.	.	.	.	.	.
8E\L	.	.	16dd\LL	.	24bb\LL	.	.	.	.	.	2r	2r
.	.	.	.	.	24aa\	.	.	.	.	.	.	.
.	.	.	16b\	.	.	.	.	.	.	.	.	.
.	.	.	.	.	24gg\JJ	.	.	.	.	.	.	.
8E\	.	.	16dd\	.	(16ff#\LL	.	.	.	.	.	.	.
.	.	.	16b\JJ	.	16gg\JJ)	.	.	.	.	.	.	.
8E\	.	.	16dd\LL	.	(16.ff#\LL	.	.	.	.	.	.	.
.	.	.	16b\	.	.	.	.	.	.	.	.	.
.	.	.	.	.	32gg\K	.	.	.	.	.	.	.
8E\J	.	.	16dd\	.	16.ff#\	.	.	.	.	.	.	.
.	.	.	16b\JJ	.	.	.	.	.	.	.	.	.
.	.	.	.	.	32gg\JJk)	.	.	.	.	.	.	.
=6	=6	=6	=6	=6	=6	=6	=6	=6	=6	=6	=6	=6
!	!	!	!LO:TX:t=P:problem=mixed beam	!	!	!	!	!	!	!	!	!
4BB/	.	.	16g/LL	.	16bb\LL	.	.	.	.	.	4r	4r
.	.	.	16bb\	.	16gg\	.	.	.	.	.	.	.
.	.	.	16aa\	.	16ff#\	.	.	.	.	.	.	.
*	*	*	*custos:cc	*	*	*	*	*	*	*	*	*
!	!	!	!LO:TX:t=P:problem=wszystkie custos użyte jako łamanie pięciolinii	!	!	!	!	!	!	!	!	!
.	.	.	16gg\JJ	.	16ee\JJ	.	.	.	.	.	.	.
!	!	!	!LO:LB:g=original	!	!	!	!	!	!	!	!	!
8r	.	.	16ff#\LL	.	16dd\LL	.	.	.	.	.	8r	8r
.	.	.	16ee\	.	16cc\	.	.	.	.	.	.	.
8C/	.	.	16dd\	.	16b\	.	.	.	.	.	8ee\	8gg\
.	.	.	16cc\JJ	.	16a\JJ	.	.	.	.	.	.	.
!	!	!	!	!	!	!	!	!	!	!	!	!LO:TX:t=P:problem=tryl pod łukiem
4D/	.	.	8b\L	.	4g/	.	.	.	.	.	4dd\	4ggT\
.	.	.	16a\L	.	.	.	.	.	.	.	.	.
.	.	.	16g\JJ	.	.	.	.	.	.	.	.	.
4DD/	.	.	4f#/	.	4a/	.	.	.	.	.	4dd\	4ff#\
=7	=7	=7	=7	=7	=7	=7	=7	=7	=7	=7	=7	=7
8GG/L	.	.	8g/L	.	8g/	.	8G\	GLo-	8.dd\	Glo-	8dd\L	8gg\L
8GG/	.	.	8d/ 8b	.	4gg\	.	8G\	-ri-	.	.	8gg\	8bb\
.	.	.	.	.	.	.	.	.	16dd\	-ri-	.	.
8GG/	.	.	8d/ 8b	.	.	.	4G\	-a	4dd\	-a	8gg\	8bb\
8GG/J	.	.	8d/J 8b	.	16dd\LL	.	.	.	.	.	8gg\J	8bb\J
.	.	.	.	.	16b\JJ	.	.	.	.	.	.	.
8G\L	.	.	8d/L 8b	.	8g/L	.	8G\	in	8gg\	in	4gg\	4bb\
8G\	.	.	8d/ 8b	.	8g/	.	8G\	Ex-	8dd\	ex-	.	.
8G\	.	.	8d/ 8b	.	8g/	.	8G\	-cel-	8b\	-cel-	4r	4r
8G\J	.	.	8d/J 8b	.	8g/J	.	8G\	-sis	8g\	-sis	.	.
=8	=8	=8	=8	=8	=8	=8	=8	=8	=8	=8	=8	=8
8F#\L	.	.	8d/L 8a	.	8f#/	.	4F#\	De-	4dd\	De-	8ff#\L	8aa\L
8F#\	.	.	8d/ 8a	.	4dd\	.	.	.	.	.	8ff#\	8aa\
8F#\	.	.	8d/ 8a	.	.	.	4F#\	-o	4d/	-o	8ff#\	8aa\
!LO:TX:t=P:problem=dźwięk nieczytelny, defekt źródła [przyjęto 8F#]	!	!	!	!	!	!	!	!	!	!	!	!
8F#\Jyy	.	.	8d/J 8a	.	16a/LL	.	.	.	.	.	8ff#\J	8aa\J
.	.	.	.	.	16f#/JJ	.	.	.	.	.	.	.
*	*	*	*	*	*	*	*	*ij	*	*ij	*	*
!LO:LB:g=original	!	!	!	!	!	!	!	!	!	!	!	!
8F#\L	.	.	8d/L 8a	.	8d/L	.	8F#\	in	8dd\	in	4ff#\	4aa\
8F#\	.	.	8d/ 8a	.	8d/	.	8F#\	ex-	8a\	ex-	.	.
8F#\	.	.	8d/ 8a	.	8d/	.	8F#\	-cel-	8f#/	-cel-	4r	4r
8F#\J	.	.	8d/J 8a	.	8d/J	.	8F#\	-sis	8d/	-sis	.	.
*	*	*	*	*	*	*	*	*	*	*Xij	*	*
=9	=9	=9	=9	=9	=9	=9	=9	=9	=9	=9	=9	=9
4G\	.	.	4d/ 4b	.	16g/LL	.	8G\	De-	8g\	in	1ree	1r
.	.	.	.	.	16g/	.	.	.	.	.	.	.
.	.	.	.	.	16g/	.	8G\	-o	8g\	ex-	.	.
.	.	.	.	.	16g/JJ	.	.	.	.	.	.	.
4r	.	.	4r	.	16cc\LL	.	4r	.	8cc\	-cel-	.	.
.	.	.	.	.	16cc\	.	.	.	.	.	.	.
.	.	.	.	.	16cc\	.	.	.	8cc\	-ſis	.	.
.	.	.	.	.	16cc\JJ	.	.	.	.	.	.	.
*	*	*	*	*	*	*	*	*Xij	*	*ij	*	*
4GG/	.	.	16g/LL	.	16b\LL	.	8G\	in	8b\	in	.	.
.	.	.	16g/	.	16b\	.	.	.	.	.	.	.
.	.	.	16g/	.	16b\	.	8G\	ex-	8b\	ex-	.	.
.	.	.	16g/JJ	.	16b\JJ	.	.	.	.	.	.	.
4r	.	.	16cc/LL	.	16ee\LL	.	8c\	-cel-	8ee\	-cel-	.	.
.	.	.	16cc/	.	16ee\	.	.	.	.	.	.	.
.	.	.	16cc/	.	16ee\	.	8c\	-sis	8ee\	-sis	.	.
.	.	.	16cc/JJ	.	16ee\JJ	.	.	.	.	.	.	.
*	*	*	*	*	*	*	*	*	*	*Xij	*	*
=10	=10	=10	=10	=10	=10	=10	=10	=10	=10	=10	=10	=10
!	!	!	!	!	!	!	!	!	!	!	!	!LO:LB:g=original
16G\LL	.	.	16b\LL	.	16dd\LL	.	4B\	De-	4dd\	De-	8r	8r
16G\	.	.	16b\	.	16dd\	.	.	.	.	.	.	.
16G\	.	.	16b\	.	16dd\	.	.	.	.	.	16dd\LL	16dd\LL
16G\JJ	.	.	16b\JJ	.	16dd\JJ	.	.	.	.	.	16dd\J	16dd\J
16G\LL	.	.	16gg\LL	.	16bb\LL	.	4B\	-o	4gg\	-o	8dd\	8dd\
16G\	.	.	16gg\	.	16bb\	.	.	.	.	.	.	.
16G\	.	.	16gg\	.	16bb\	.	.	.	.	.	8dd\J	8dd\J
*	*	*	*	*	*custos:cc	*	*	*	*	*	*	*
16G\JJ	.	.	16gg\JJ	.	16bb\JJ	.	.	.	.	.	.	.
.	.	.	.	.	.	.	.	.	8qqgg/	.	.	.
!	!	!	!	!	!LO:LB:g=original	!	!	!	!	!	!LO:LB:g=original	!
16d\LL	.	.	16ff#\LL	.	16aa\LL	.	8.d\	glo-	8.ff#\	glo-	4dd\	4dd\
16d\	.	.	16ff#\	.	16aa\	.	.	.	.	.	.	.
16d\	.	.	16ff#\	.	16aa\	.	.	.	.	.	.	.
16d\JJ	.	.	16ff#\JJ	.	16aa\JJ	.	16d\	-ri-	16ff#\	-ri-	.	.
16d\LL	.	.	16aa\LL	.	16ccc\LL	.	4d\	-a	4ff#\	-a	4r	4r
16d\	.	.	16aa\	.	16ccc\	.	.	.	.	.	.	.
16d\	.	.	16aa\	.	16ccc\	.	.	.	.	.	.	.
16d\JJ	.	.	16aa\JJ	.	16ccc\JJ	.	.	.	.	.	.	.
=11	=11	=11	=11	=11	=11	=11	=11	=11	=11	=11	=11	=11
8G\L	.	.	8gg\L	.	8bb\	.	2r	.	8gg\	in	4gg\	4bb\
8G\	.	.	16dd\L	.	4g/	.	.	.	8dd\	ex-	.	.
.	.	.	16b\JJ	.	.	.	.	.	.	.	.	.
8G\	.	.	16dd\LL	.	.	.	.	.	8dd\	-cel-	4r	4r
.	.	.	16b\	.	.	.	.	.	.	.	.	.
8G\J	.	.	16dd\	.	16b\LL	.	.	.	8cc\	-sis	.	.
.	.	.	16b\JJ	.	16dd\JJ	.	.	.	.	.	.	.
8G\L	.	.	16dd\LL	.	8gg\L	.	8d\	in	4b\	De-	8r	8r
.	.	.	16b\	.	.	.	.	.	.	.	.	.
8G\	.	.	16dd\	.	8bb\J	.	8B\	ex-	.	.	8gg\L	8bb\L
.	.	.	16b\JJ	.	.	.	.	.	.	.	.	.
8G\	.	.	16dd\LL	.	4ddd\	.	8B\	-cel-	4g\	-o	8gg\	8bb\
.	.	.	16b\	.	.	.	.	.	.	.	.	.
8G\J	.	.	16dd\	.	.	.	8G\	-sis	.	.	8gg\J	8bb\J
.	.	.	16b\JJ	.	.	.	.	.	.	.	.	.
=12	=12	=12	=12	=12	=12	=12	=12	=12	=12	=12	=12	=12
*	*	*	*	*	*	*	*	*	*	*ij	*	*
!	!	!	!	!	!	!	!LO:LB:g=original	!	!	!	!	!
8F#\L	.	.	16dd\LL	.	8aa\	.	4.F#\	De-	8dd\	in	4ff#\	4aa\
.	.	.	16a\	.	.	.	.	.	.	.	.	.
8F#\	.	.	16dd\	.	4f#/	.	.	.	8a\	ex-	.	.
*	*	*	*custos:b	*	*	*	*	*	*	*	*	*
.	.	.	16a\JJ	.	.	.	.	.	.	.	.	.
!	!	!	!LO:LB:g=original	!	!	!	!	!	!	!	!	!
8F#\	.	.	16dd\LL	.	.	.	.	.	8a\	-cel-	4r	4r
.	.	.	16a\	.	.	.	.	.	.	.	.	.
8F#\J	.	.	16dd\	.	16a/LL	.	8D\	-o	8a\	-sis	.	.
.	.	.	16a\JJ	.	16dd/JJ	.	.	.	.	.	.	.
*	*	*	*	*	*	*	*	*ij	*	*	*	*
8F#\L	.	.	16dd\LL	.	8ff#\L	.	8A\	in	4f#/	De-	8r	8r
.	.	.	16a\	.	.	.	.	.	.	.	.	.
8F#\	.	.	16dd\	.	8aa\J	.	8F#\	ex-	.	.	8ff#\L	8aa\L
.	.	.	16a\JJ	.	.	.	.	.	.	.	.	.
8F#\	.	.	16dd\LL	.	4ddd\	.	8F#\	-cel-	4d/	-o	8ff#\	8aa\
.	.	.	16a\	.	.	.	.	.	.	.	.	.
8F#\J	.	.	16dd\	.	.	.	8D\	-sis	.	.	8ff#\J	8aa\J
.	.	.	16a\JJ	.	.	.	.	.	.	.	.	.
*	*	*	*	*	*	*	*	*	*	*Xij	*	*
=13	=13	=13	=13	=13	=13	=13	=13	=13	=13	=13	=13	=13
!	!	!	!	!	!LO:TX:t=P:problem=mixed beam	!	!	!	!LO:LB:g=original	!	!	!
8C#X/L	.	.	8e/	.	16gg\LL	.	8C#X/	De-	8a\	glo-	4ee\	4gg\
.	.	.	.	.	16a/	.	.	.	.	.	.	.
8C#/	.	.	4e/	.	16a/	.	8C#/	-o	4gg\	.	.	.
*	*	*	*	*	*	*	*	*Xij	*	*	*	*
.	.	.	.	.	16a/JJ	.	.	.	.	.	.	.
8D/	.	.	.	.	16a/LL	.	8D/	glo-	.	.	4r	4r
.	.	.	.	.	16a/	.	.	.	.	.	.	.
8D/J	.	.	8d/	.	16a/	.	8D/	-ri-	8ff#\	-ri-	.	.
.	.	.	.	.	16a/JJ	.	.	.	.	.	.	.
4AA/	.	.	4c#X/	.	8a\L	.	4AA/	-a	4ee\	-a	4a/	4ee\
.	.	.	.	.	16b\L	.	.	.	.	.	.	.
.	.	.	.	.	16cc#X\JJ	.	.	.	.	.	.	.
4r	.	.	4r	.	16dd\LL	.	4r	.	4r	.	4r	4r
.	.	.	.	.	16ee\	.	.	.	.	.	.	.
.	.	.	.	.	16ff#\	.	.	.	.	.	.	.
.	.	.	.	.	16gg\JJ	.	.	.	.	.	.	.
=14	=14	=14	=14	=14	=14	=14	=14	=14	=14	=14	=14	=14
8F#\L	.	.	8a/L	.	8aa\L	.	8F#\	glo-	8dd\	glo-	4dd\	4ff#\
8F#\	.	.	8a/	.	8dd\	.	16F#\	-ri-	16dd\	-ri-	.	.
.	.	.	.	.	.	.	16F#\	-a	16dd\	-a	.	.
8G\	.	.	8b/	.	8dd\	.	8G\	in	8dd\	in	4r	4r
8G\J	.	.	8b/J	.	8dd\J	.	8G\	ex-	8dd\	ex-	.	.
8F#\L	.	.	8a/L	.	16dd\LL	.	(8F#\L	-cel-	16dd\LL	-cel-	8r	8r
.	.	.	.	.	16bb\	.	.	.	16gg\	.	.	.
8G\	.	.	8b/	.	16aa\	.	8G\J)	.	16ff#\	.	8gg\L	8bb\L
.	.	.	.	.	16gg\JJ	.	.	.	16ee\JJ	.	.	.
8F#\	.	.	8dd/	.	16aa\LL	.	(8F#\L	-sis	(16ff#\LL	-ſis	8ff#\	8aa\
.	.	.	.	.	16ff#\	.	.	.	16dd\JJ)	.	.	.
8G\J	.	.	8b/J	.	16gg\	.	8G\J)	.	(16ee\LL	.	8ee\J	8gg\J
.	.	.	.	.	16ee\JJ	.	.	.	16b\JJ)	.	.	.
=15	=15	=15	=15	=15	=15	=15	=15	=15	=15	=15	=15	=15
*	*	*	*^	*	*	*	*	*	*	*	*	*
4A\	.	.	4dd\	2ryy	.	4dd\	.	4A\	De-	4dd\	De-	4dd\	4ff#\
4AA/	.	.	4cc#X\	.	.	4ee\	.	4AA/	-o	4cc#X\	-o	4a/	4ee\
!LO:TX:a:t=ſolo	!	!	!	!	!	!	!	!	!	!	!	!	!
8D\L	.	.	8dd/L	8ryy	.	8dd\	.	4D/	.	4dd\	.	4f#/	4dd\
8D\	.	.	8a/	8f#\L	.	4ddd\	.	.	.	.	.	.	.
8D\	.	.	8a/	8f#\	.	.	.	4r	.	4r	.	4r	4r
8D\J	.	.	8a/J	8f#\J	.	16aa\LL	.	.	.	.	.	.	.
.	.	.	.	.	.	16ff#\JJ	.	.	.	.	.	.	.
=16	=16	=16	=16	=16	=16	=16	=16	=16	=16	=16	=16	=16	=16
8D\L	.	.	8a/L	8f#\L	.	8dd\L	.	00r	.	00r	.	8r	8r
8D\	.	.	8a/	8f#\	.	8dd\	.	.	.	.	.	8dd\L	8ff#\L
8D\	.	.	8a/	8f#\	.	8dd\	.	.	.	.	.	8dd\	8ff#\
8D\J	.	.	8a/J	8f#\J	.	8dd\J	.	.	.	.	.	8dd\J	8ff#\J
!LO:N:vis=16	!	!	!	!	!	!	!	!	!	!	!	!	!
8C#X\L	.	.	8a/L	8f#\L	.	8cc#X\	.	.	.	.	.	4a/	4ee\
!LO:N:vis=16	!	!	!	!	!	!	!	!	!	!	!	!	!
8C#\	.	.	8a/	8f#\	.	4aa\	.	.	.	.	.	.	.
!LO:N:vis=16	!	!	!	!	!	!	!	!	!	!	!	!	!
8C#\	.	.	8a/	8f#\	.	.	.	.	.	.	.	4r	4r
!LO:N:vis=16	!	!	!	!	!	!	!	!	!	!	!	!	!
8C#\J	.	.	8a/J	8f#\J	.	16ee\LL	.	.	.	.	.	.	.
.	.	.	.	.	.	16cc#\JJ	.	.	.	.	.	.	.
=17	=17	=17	=17	=17	=17	=17	=17	=17	=17	=17	=17	=17	=17
!LO:SIC:v:s=16C#/L	!	!	!	!	!	!LO:LB:g=original	!	!	!	!	!	!	!
8C/L	.	.	8a/L	8f#\L	.	8a/L	.	.	.	.	.	8r	8r
!LO:SIC:v:s=16C#/	!	!	!	!	!	!	!	!	!	!	!	!	!
8C/	.	.	8a/	8f#\	.	8a/	.	.	.	.	.	8ee\L	8gg\L
!LO:SIC:v:s=16C#/	!	!	!	!	!	!	!	!	!	!	!	!	!
8C/	.	.	8a/	8f#\	.	8a/	.	.	.	.	.	8ee\	8gg\
!LO:TX:t=P:problem=dźwięk nieczytelny, defekt źródła	!	!	!	!	!	!	!	!	!	!	!	!	!
!LO:SIC:v:s=16C#/Jyy	!	!	!	!	!	!	!	!	!	!	!	!	!
8C/Jyy	.	.	8a/J	8f#\J	.	8a/J	.	.	.	.	.	8ee\J	8gg\J
!LO:LB:g=original	!	!	!	!	!	!	!	!	!	!	!	!	!
4D\	.	.	4a/	4f#\	.	16d/LL	.	.	.	.	.	4dd\	4ff#\
.	.	.	.	.	.	16d/	.	.	.	.	.	.	.
.	.	.	.	.	.	16d/	.	.	.	.	.	.	.
.	.	.	.	.	.	16d/JJ	.	.	.	.	.	.	.
4r	.	.	4r	4ryy	.	16g/LL	.	.	.	.	.	4r	4r
.	.	.	.	.	.	16g/	.	.	.	.	.	.	.
.	.	.	.	.	.	16g/	.	.	.	.	.	.	.
.	.	.	.	.	.	16g/JJ	.	.	.	.	.	.	.
*	*	*	*v	*v	*	*	*	*	*	*	*	*	*
=18	=18	=18	=18	=18	=18	=18	=18	=18	=18	=18	=18	=18
2r	.	.	16d/LL	.	16f#/LL	.	.	.	.	.	2r	2r
.	.	.	16d/	.	16f#/	.	.	.	.	.	.	.
.	.	.	16d/	.	16f#/	.	.	.	.	.	.	.
.	.	.	16d/JJ	.	16f#/JJ	.	.	.	.	.	.	.
.	.	.	16g/LL	.	16b/LL	.	.	.	.	.	.	.
.	.	.	16g/	.	16b/	.	.	.	.	.	.	.
.	.	.	16g/	.	16b/	.	.	.	.	.	.	.
.	.	.	16g/JJ	.	16b/JJ	.	.	.	.	.	.	.
16D/LL	.	.	16f#/LL	.	16a/LL	.	.	.	.	.	8r	8r
16D/	.	.	16f#/	.	16a/	.	.	.	.	.	.	.
16D/	.	.	16f#/	.	16a/	.	.	.	.	.	16a/LL	16a/LL
16D/JJ	.	.	16f#/JJ	.	16a/JJ	.	.	.	.	.	16a/JJ	16a/J
!LO:N:vis=8	!	!	!LO:SIC:v:s=16cc\LL	!	!	!	!	!	!	!	!	!
16D/LL	.	.	16cc#X\LL	.	16ff#\LL	.	.	.	.	.	8a/L	8a/
!LO:N:vis=8	!	!	!LO:SIC:v:s=16cc\	!	!	!	!	!	!	!	!	!
16D/	.	.	16cc#\	.	16ff#\	.	.	.	.	.	.	.
!LO:N:vis=8	!	!	!LO:SIC:v:s=16cc\	!	!	!	!	!	!	!	!	!
16D/	.	.	16cc#\	.	16ff#\	.	.	.	.	.	8dd/J	8a/J
!LO:N:vis=8	!	!	!LO:SIC:v:s=16cc\JJ	!	!	!	!	!	!	!	!	!
16D/JJ	.	.	16cc#\JJ	.	16ff#\JJ	.	.	.	.	.	.	.
=19	=19	=19	=19	=19	=19	=19	=19	=19	=19	=19	=19	=19
!	!	!	!LO:SIC:v:s=16cc#\LL	!	!	!	!	!	!	!	!	!LO:TX:t=P:problem=mixed beam
16A\LL	.	.	16cc\LL	.	16ee\LL	.	.	.	.	.	8a/L	8ee\L
!	!	!	!LO:SIC:v:s=16cc#\	!	!	!	!	!	!	!	!	!
16A\	.	.	16cc\	.	16ee\	.	.	.	.	.	.	.
!	!	!	!LO:SIC:v:s=16cc#\	!	!	!	!	!	!	!	!	!
16A\	.	.	16cc\	.	16ee\	.	.	.	.	.	16a/L	16a/L
*	*	*	*custos:a	*	*	*	*	*	*	*	*	*
!	!	!	!LO:SIC:v:s=16cc#\JJ	!	!	!	!	!	!	!	!	!
16A\JJ	.	.	16cc\JJ	.	16ee\JJ	.	.	.	.	.	16a/JJ	16a/JJ
!	!	!	!LO:LB:g=original	!	!	!	!	!	!	!	!	!
16A\LL	.	.	16ee\LL	.	16gg\LL	.	.	.	.	.	8a/L	8a/L
16A\	.	.	16ee\	.	16gg\	.	.	.	.	.	.	.
*	*	*	*	*	*	*	*	*	*	*	*	*custos:b
!	!	!	!	!	!	!	!	!	!	!	!	!LO:TX:t=P:problem=wszystkie custos użyte jako łamanie pięciolinii
16A\	.	.	16ee\	.	16gg\	.	.	.	.	.	8ee/J	8gg\J
16A\JJ	.	.	16ee\JJ	.	16gg\JJ	.	.	.	.	.	.	.
!	!	!	!LO:TX:t=P:problem=mixed beam	!	!	!	!	!	!	!	!	!LO:LB:g=original
8d\L	.	.	8dd\L	.	24ff#\LL	.	.	.	.	.	4dd\	4ff#\
.	.	.	.	.	24ee\	.	.	.	.	.	.	.
.	.	.	.	.	24dd\JJ	.	.	.	.	.	.	.
!	!	!	!	!	!LO:SIC:v:s=16cc#\LL	!	!	!	!	!	!	!
8d\	.	.	8f#/	.	16cc\LL	.	.	.	.	.	.	.
.	.	.	.	.	16dd\JJ	.	.	.	.	.	.	.
8d\	.	.	8f#/	.	(16.cc#X\LL	.	.	.	.	.	8r	8r
.	.	.	.	.	32dd\K)	.	.	.	.	.	.	.
8d\J	.	.	8f#/J	.	(16.cc#\	.	.	.	.	.	8dd\	8ff#\
.	.	.	.	.	32dd\JJk)	.	.	.	.	.	.	.
=20	=20	=20	=20	=20	=20	=20	=20	=20	=20	=20	=20	=20
!	!	!	!	!	!	!	!	!	!	!	!LO:LB:g=original	!
8B\L	.	.	8f#/L	.	24ff#\LL	.	1r	.	1r	.	8dd\L	8ff#\L
.	.	.	.	.	24ee\	.	.	.	.	.	.	.
.	.	.	.	.	24dd\JJ	.	.	.	.	.	.	.
!	!	!	!	!	!LO:SIC:v:s=16cc#\LL	!	!	!	!	!	!	!
8B\	.	.	8f#/	.	16cc\LL	.	.	.	.	.	8dd\	8ff#\
.	.	.	.	.	16dd\JJ	.	.	.	.	.	.	.
!	!	!	!	!	!LO:SIC:v:s=(16.cc#\LL	!	!	!	!	!	!	!
8B\	.	.	8f#/	.	(16.cc\LL	.	.	.	.	.	8dd\	8ff#\
.	.	.	.	.	32dd\K)	.	.	.	.	.	.	.
!	!	!	!	!	!LO:SIC:v:s=16.cc#\	!	!	!	!	!	!	!
8B\J	.	.	8f#/J	.	(16.cc\	.	.	.	.	.	8dd\J	8ff#\J
.	.	.	.	.	32dd\JJk)	.	.	.	.	.	.	.
!	!	!	!LO:TX:t=P:problem=mixed beam	!	!	!	!	!	!	!	!	!
4F#\	.	.	16f#/LL	.	16ff#\LL	.	.	.	.	.	4dd\	4ff#\
.	.	.	16ff#\	.	16dd\	.	.	.	.	.	.	.
!	!	!	!	!	!LO:SIC:v:s=16cc#\	!	!	!	!	!	!	!
.	.	.	16ee\	.	16cc\	.	.	.	.	.	.	.
.	.	.	16dd\JJ	.	16b\JJ	.	.	.	.	.	.	.
8r	.	.	16cc#X\LL	.	16a/LL	.	.	.	.	.	8r	8r
.	.	.	16b\	.	16g/	.	.	.	.	.	.	.
8G\	.	.	16a\	.	16f#/	.	.	.	.	.	8ee\	8gg\
.	.	.	16g\JJ	.	16e/JJ	.	.	.	.	.	.	.
=21	=21	=21	=21	=21	=21	=21	=21	=21	=21	=21	=21	=21
.	.	.	8qqg/	.	.	.	.	.	.	.	.	.
*	*	*	*^	*	*	*	*	*	*	*	*	*
4A\	.	.	8f#/L	2ryy	.	4d/	.	2r	.	2r	.	4dd\	4ff#\
.	.	.	16e/L	.	.	.	.	.	.	.	.	.	.
.	.	.	16d/JJ	.	.	.	.	.	.	.	.	.	.
!	!	!	!	!	!	!LO:TX:t=P:problem=trillo pod łukiem	!	!	!	!	!	!	!
!	!	!	!	!	!	!LO:TX:a:B:t=t	!	!	!	!	!	!	!
4AA/	.	.	4c#X/	.	.	4e/	.	.	.	.	.	4a/	4ee\
!LO:TX:a:t=tut	!	!	!	!	!	!	!	!	!	!	!	!	!
8D\L	.	.	8d/L	8ryy	.	8d/	.	4d\	Et	4a\	Et	4f#/	4dd\
!	!	!	!	!	!	!LO:N:vis=8.	!	!	!	!	!	!	!
8D\	.	.	8a/	8f#\L	.	4ddd\	.	.	.	.	.	.	.
8D\	.	.	8a/	8f#\	.	.	.	8r	.	8r	.	8r	8r
8D\J	.	.	8a/J	8f#\J	.	16aa\LL	.	8d\	in	8a\	in	8dd\	8ff#\
.	.	.	.	.	.	16ff#\JJ	.	.	.	.	.	.	.
!	!	!	!	!	!	!LO:TX:b:t=verte Cito:rj	!	!	!	!	!	!	!
=22	=22	=22	=22	=22	=22	=22	=22	=22	=22	=22	=22	=22	=22
!	!	!	!	!	!	!LO:PB:g=original	!	!	!	!	!	!	!
8D\L	.	.	8a/L	8f#\L	.	8dd\L	.	8d\	ter-	8dd\	ter-	8dd\L	8ff#\L
8D\	.	.	8a/	8f#\	.	8dd\	.	8d\	-ra	8a\	-ra	8dd\	8ff#\
8D\	.	.	8a/	8f#\	.	8dd\	.	8d\	pax	8dd\	pax	8dd\	8ff#\
8D\J	.	.	8a/J	8f#\J	.	8dd\J	.	8d\	ho-	8ff#\	ho-	8dd\J	8ff#\J
!	!	!	!	!LO:SIC:v:s=8e\L:t=?	!	!	!	!LO:LB:g=original	!	!	!	!	!
8C#X/L	.	.	8a/L	8f#\L	.	8a/	.	8.c#X\	-mi-	8.ee\	-mi-	4a/	4ee\
!	!	!	!	!LO:SIC:v:s=8e\:t=?	!	!	!	!	!	!	!	!	!
8C#/	.	.	8a/	8f#\	.	4aa\	.	.	.	.	.	.	.
.	.	.	.	.	.	.	.	16c#\	-ni-	16ee\	-ni-	.	.
!	!	!	!	!LO:SIC:v:s=8e\:t=?	!	!	!	!	!	!	!	!	!
8C#/	.	.	8a/	8f#\	.	.	.	4c#\	-bus	4ee\	-bus	4r	4r
!	!	!	!	!LO:SIC:v:s=8e\J:t=?	!	!	!	!	!	!	!	!	!
8C#/J	.	.	8a/J	8f#\J	.	16ee\LL	.	.	.	.	.	.	.
.	.	.	.	.	.	16cc#X\JJ	.	.	.	.	.	.	.
=23	=23	=23	=23	=23	=23	=23	=23	=23	=23	=23	=23	=23	=23
!LO:SIC:v:s=8C#/L	!	!	!	!	!	!	!	!LO:SIC:v:s=8c#\	!	!LO:TX:t=P:problem=tekst słowny w tt. 23-24 podzielony zgodnie z zapisem nutowym	!	!	!
8C/L	.	.	8a/L	8f#\L	.	8a/L	.	8c\	bo-	8ee\	bo-	8r	8r
!LO:SIC:v:s=8C#/	!	!	!	!	!	!	!	!LO:SIC:v:s=8c#\	!	!	!	!	!
8C/	.	.	8a/	8f#\	.	8a/	.	8c\	-nae	8ee\	-nae	8a/L	8ee\L
!LO:SIC:v:s=8C#/	!	!	!	!	!	!	!	!LO:SIC:v:s=8c#\	!	!	!	!	!
8C/	.	.	8a/	8f#\	.	8a/	.	8c\	vo-	8aa\	vo-	8a/	8ee\
!LO:SIC:v:s=8C#/J	!	!	!	!	!	!	!	!LO:SIC:v:s=8c#\	!	!	!	!	!
8C/J	.	.	8a/J	8f#\J	.	8a/J	.	8c\	-lun-	8cc#X\	-lun-	8a/J	8ee\J
8BB/L	.	.	8f#/L	2ryy	.	16dd\LL	.	4B\	-ta-	4dd\	-ta-	4dd\	4ff#\
.	.	.	.	.	.	16ee\	.	.	.	.	.	.	.
8BB/	.	.	8d/	.	.	16ff#\	.	.	.	.	.	.	.
.	.	.	.	.	.	16gg\JJ	.	.	.	.	.	.	.
8F#/	.	.	8f#/	.	.	16aa\LL	.	8F#\	-tis	8dd\	-tis	4r	4r
.	.	.	.	.	.	16dd\	.	.	.	.	.	.	.
!	!	!	!	!	!	!LO:TX:t=P:problem=♯ above	!	!	!	!	!	!	!
8F#/J	.	.	8a/J	.	.	16cc#X\	.	8F#\	lau-	8dd\	Lau-	.	.
.	.	.	.	.	.	16dd\JJ	.	.	.	.	.	.	.
*	*	*	*v	*v	*	*	*	*	*	*	*	*	*
=24	=24	=24	=24	=24	=24	=24	=24	=24	=24	=24	=24	=24
!	!	!	!	!	!	!	!	!	!LO:LB:g=original	!	!	!
8G\L	.	.	8d/L	.	8b\L	.	8G\	-da-	8b\	-da-	4dd\	4dd\
8F#\	.	.	8d/	.	8a\J	.	8F#\	-mus	8a\	-mus	.	.
8G\	.	.	8e/	.	16b\LL	.	8G\	te	8b\	te	8r	8r
.	.	.	.	.	16ee\	.	.	.	.	.	.	.
8G#X\J	.	.	8b/J	.	16dd#X\	.	16G#X\	be-	16ee\	be-	8ee\	8ee\
.	.	.	.	.	16ee\JJ	.	16G#\	-ne-	16ee\	-ne-	.	.
8A\L	.	.	8e/L	.	8cc#X\L	.	8A\	-di-	8cc#X\	-di-	4ee\	4ee\
8G#X\	.	.	8e/	.	8b\J	.	16G#\	-ci-	16b\	-ci-	.	.
.	.	.	.	.	.	.	16G#\	-mus	16b\	-mus	.	.
8A\	.	.	8f#/	.	16cc#\LL	.	8A\	te	8cc#\	te	8r	8r
.	.	.	.	.	16ff#\	.	.	.	.	.	.	.
8A#X\J	.	.	8cc#X/J	.	16ee#X\	.	16A#X\	a-	16ff#\	a-	8ff#\	8ff#\
.	.	.	.	.	16ff#\JJ	.	16A#\	-do-	16ff#\	-do-	.	.
=25	=25	=25	=25	=25	=25	=25	=25	=25	=25	=25	=25	=25
8B\L	.	.	8f#/L	.	8dd\L	.	8B\	-ra-	8dd\	-ra-	4ff#\	4ff#\
!	!	!	!	!	!LO:SIC:v:s=8cc#\J	!	!	!	!	!	!	!
8A#X\	.	.	8f#/	.	8cc\J	.	8A#X\	-mus	8cc#X\	-mus	.	.
8B\	.	.	8f#/	.	16dd\LL	.	8B\	te	8dd\	te	8r	8r
.	.	.	.	.	16bb\	.	.	.	.	.	.	.
8Gn\J	.	.	8b/J	.	16gg\	.	8G\	glo-	8ee\	glo-	8dd\	8gg\
.	.	.	.	.	16ee\JJ	.	.	.	.	.	.	.
!LO:SIC:v:s=8An\L	!	!	!	!	!	!	!	!	!	!	!	!
!LO:TX:t=P:problem=mixed beam	!	!	!	!	!	!	!LO:SIC:v:s=8An\	!	!	!	!	!
.	.	.	.	.	8qdd/	.	.	.	.	.	.	.
8A#\L	.	.	8e/L	.	8cc#X\L	.	8A#\	-ri-	8cc#\	-ri-	8a\L	8ee\L
8D\	.	.	16f#/L	.	16dd\L	.	8D\	-fi-	16dd\LL	-fi-	16dd\L	16ff#\L
.	.	.	16b/JJ	.	16ee\JJ	.	.	.	16ee\JJ	.	16ee\JJ	16gg\JJ
!	!	!	!LO:TX:t=P:problem=trillo pod łukiem	!	!LO:TX:t=P:problem=tryl pod łukiem	!	!	!	!	!	!	!
!LO:SIC:v:s=8An\	!	!	!LO:TX:a:B:t=t.	!	!	!	!LO:SIC:v:s=8An\	!	!	!	!	!LO:TX:t=P:problem=tryl pod łukiem
8A#\	.	.	4cc#X\	.	4eeT\	.	8A#\	-ca-	8.ee\	-ca-	8dd\L	4eeT\
8AA/J	.	.	.	.	.	.	8AA/	-mus	.	.	8a\J	.
.	.	.	.	.	.	.	.	.	16dd\	-mus	.	.
=26	=26	=26	=26	=26	=26	=26	=26	=26	=26	=26	=26	=26
!LO:LB:g=original	!	!	!	!	!	!	!	!	!	!	!	!
4D/	.	.	4dd\	.	16dd\LL	.	4D/	te	4dd\	te	4f#/	4dd\
.	.	.	.	.	16ee\	.	.	.	.	.	.	.
.	.	.	.	.	16ff#\	.	.	.	.	.	.	.
.	.	.	.	.	16gg\JJ	.	.	.	.	.	.	.
*	*	*	*	*	*	*	*custos:E	*	*	*	*	*
!	!	!	!	!	!	!	!LO:TX:t=P:problem=wszystkie custos użyte jako łamanie pięciolinii	!	!	!	!	!
8d\L	.	.	8r	.	16aa\LL	.	8d\	gra-	8ff#\	gra-	8r	8r
.	.	.	.	.	16bb\	.	.	.	.	.	.	.
*	*	*	*custos:b	*	*	*	*	*	*	*	*	*
!	!	!	!	!	!LO:SIC:v:s=8ccc#\	!	!LO:LB:g=original	!	!	!	!	!
8d\J	.	.	8a/	.	16ccc\	.	16d\	-ti-	16ff#\	-ti-	8dd\	8ff#\
.	.	.	.	.	16ddd\JJ	.	16d\	-as	16ff#\	-as	.	.
!	!	!	!LO:LB:g=original	!	!	!	!	!	!	!	!	!
8c#X\L	.	.	8ee\L	.	16aa\LL|	.	8c#X\L	a-	(8ee\L	a-	8a/	8ee\L
.	.	.	.	.	(16aa\	.	.	.	.	.	.	.
8d\	.	.	8ff#\	.	16gg\)	.	8d\J	.	8ff#\J)	.	4dd\	8ff#\J
.	.	.	.	.	16ff#\JJ	.	.	.	.	.	.	.
8B\	.	.	8dd\	.	16gg\LL|	.	8B\	-gi-	8gg\	-gi-	.	4gg\
.	.	.	.	.	(16gg\	.	.	.	.	.	.	.
8c#\J	.	.	8ee\J	.	16ff#\)	.	8c#X\	-mus	8ee\	-mus	8ee\	.
.	.	.	.	.	16ee\JJ	.	.	.	.	.	.	.
=27	=27	=27	=27	=27	=27	=27	=27	=27	=27	=27	=27	=27
8d\L	.	.	8a/L	.	8ff#\L	.	8d\	ti-	8ff#\	ti-	4dd\	4ff#\
8d\	.	.	8a/	.	8ff#\	.	8d\	-bi	8dd\	-bi	.	.
8d\	.	.	8a/	.	8ff#\	.	8d\	pro-	8ff#\	pro-	4r	4r
8d\J	.	.	8a/J	.	8ff#\J	.	8d\	-pter	8ff#\	-pter	.	.
8B\L	.	.	8dd\L	.	16gg\LL	.	4B\	ma-	16gg\LL	ma-	2r	2r
.	.	.	.	.	16ff#\	.	.	.	16ff#\	.	.	.
8B\	.	.	8dd\	.	16gg\	.	.	.	16gg\	.	.	.
.	.	.	.	.	16aa\JJ	.	.	.	16aa\JJ	.	.	.
8B\	.	.	8dd\	.	16gg\LL	.	4B\	-gna(m)	16gg\LL	-gnam	.	.
.	.	.	.	.	16ff#\	.	.	.	16ff#\JJ	.	.	.
8B\J	.	.	8dd\J	.	16ee\	.	.	.	16ee\LL	.	.	.
.	.	.	.	.	16dd\JJ	.	.	.	16dd\JJ	.	.	.
=28	=28	=28	=28	=28	=28	=28	=28	=28	=28	=28	=28	=28
!	!	!	!	!	!LO:LB:g=original	!	!	!	!LO:LB:g=original	!	!	!
16c\LL	.	.	8g/L	.	8ee\L	.	16cn\LL	glo-	8.ee\	glo-	00r	00r
16B\	.	.	.	.	.	.	16B\	.	.	.	.	.
16c\	.	.	8g/	.	8ee\	.	16c\	.	.	.	.	.
16d\JJ	.	.	.	.	.	.	16d\JJ	.	16ee\	-ri-	.	.
16c\LL	.	.	8g/	.	8ee\	.	16c\LL	.	4ee\	-am	.	.
16B\	.	.	.	.	.	.	16B\	.	.	.	.	.
16A\	.	.	8g/J	.	8ee\J	.	16A\	.	.	.	.	.
16G\JJ	.	.	.	.	.	.	16G\JJ	.	.	.	.	.
8A\L	.	.	8ccn\L	.	16ff#\LL	.	8.A\	.	16ff#\LL	ma-	.	.
.	.	.	.	.	16ee\	.	.	.	16ee\	.	.	.
8A\	.	.	8cc\	.	16ff#\	.	.	.	16ff#\	.	.	.
.	.	.	.	.	16gg\JJ	.	16A\	-ri-	16gg\JJ	.	.	.
8A\	.	.	8cc\	.	16ff#\LL	.	4A\	-am	16ff#\LL	-gnam	.	.
.	.	.	.	.	16ee\	.	.	.	16ee\	.	.	.
8A\J	.	.	8cc\J	.	16dd#X\	.	.	.	16dd#X\	.	.	.
!	!	!	!	!	!	!	!	!	!LO:SIC:v:s=16cc#\JJ	!	!	!
.	.	.	.	.	16cc#X\JJ	.	.	.	16cc\JJ	.	.	.
=29	=29	=29	=29	=29	=29	=29	=29	=29	=29	=29	=29	=29
16B\LL	.	.	8f#/L	.	8dd#X\L	.	16B\LL	glo-	8.dd#X\	glo-	.	.
16A\	.	.	.	.	.	.	16A\	.	.	.	.	.
16B\	.	.	8f#/	.	8dd#\	.	16B\	.	.	.	.	.
16c\JJ	.	.	.	.	.	.	16c\JJ	.	16dd#\	-ri-	.	.
16B\LL	.	.	8f#/	.	8dd#\	.	16B\LL	.	4dd#\	-am	.	.
16A\	.	.	.	.	.	.	16A\	.	.	.	.	.
16G\	.	.	8f#/J	.	8dd#\J	.	16G\	.	.	.	.	.
16F#\JJ	.	.	.	.	.	.	16F#\JJ	.	.	.	.	.
8G\L	.	.	8b/L	.	8ee\L	.	8G\L	.	8ee\	p(ro)-	.	.
8F#\	.	.	8a/	.	8dd#X\	.	8F#\J	.	8dd#X\	-pter	.	.
8G\	.	.	8b/	.	8ee\	.	8G\	.	8ee\	ma-	.	.
8E\J	.	.	8g/J	.	8b\J	.	16E\	-ri-	8b\	-gna(m)	.	.
.	.	.	.	.	.	.	16E\	-am	.	.	.	.
=30	=30	=30	=30	=30	=30	=30	=30	=30	=30	=30	=30	=30
*	*	*	*^	*	*	*	*	*	*	*	*	*
*	*	*	*	*	*	*	*	*	*ij	*	*	*	*
!LO:TX:t=P:problem=mixed beam	!	!	!LO:TX:t=P:problem=mixed beam	!	!	!	!	!	!	!	!	!	!
8A\L	.	.	8e/L	4ryy	.	8cc\L	.	8A\	glo-	8cc\	glo-	.	.
8F#\	.	.	16cc\L	.	.	16a\L	.	16F#\	-ri-	16a\	-ri-	.	.
.	.	.	16b\JJ	.	.	16f#\JJ	.	16F#\	-am	16f#\	-am	.	.
*	*	*	*	*	*	*	*	*	*Xij	*	*	*	*
!	!	!	!	!	!	!LO:TX:t=P:problem=tryl pod łukiem	!	!	!	!	!	!	!
8B\	.	.	4a/	4f#\	.	4f#t/	.	4B\	tu-	4f#/	tu-	.	.
8BB/J	.	.	.	.	.	.	.	.	.	.	.	.	.
8E\L	.	.	8e/L	2ryy	.	8e/	.	4E\	-am	4e/	-am	.	.
8E\	.	.	8B/ 8g	.	.	4ee\	.	.	.	.	.	.	.
8E\	.	.	8B/ 8g	.	.	.	.	4r	.	4r	.	.	.
8E\J	.	.	8B/J 8g	.	.	16b\LL	.	.	.	.	.	.	.
.	.	.	.	.	.	16g\JJ	.	.	.	.	.	.	.
*	*	*	*v	*v	*	*	*	*	*	*	*	*	*
=31	=31	=31	=31	=31	=31	=31	=31	=31	=31	=31	=31	=31
!	!	!	!	!	!	!	!LO:LB:g=original	!	!	!	!	!
8E\L	.	.	8B/L 8g	.	8e/L	.	0r	.	00r	.	.	.
8E\	.	.	8B/ 8g	.	8e/	.	.	.	.	.	.	.
8E\	.	.	8B/ 8g	.	8e/	.	.	.	.	.	.	.
8E\J	.	.	8B/J 8g	.	8e/J	.	.	.	.	.	.	.
8D#X\L	X 6	.	8B/L 8f#	.	8d#X/	.	.	.	.	.	.	.
8D#\	.	.	8B/ 8f#	.	4b/	.	.	.	.	.	.	.
8D#\	.	.	8B/ 8f#	.	.	.	.	.	.	.	.	.
8D#\J	.	.	8B/J 8f#	.	16f#/LL	.	.	.	.	.	.	.
.	.	.	.	.	16d#X/JJ	.	.	.	.	.	.	.
=32	=32	=32	=32	=32	=32	=32	=32	=32	=32	=32	=32	=32
!LO:SIC:v:s=8D#\L	!	!	!	!	!	!	!	!	!	!	!	!
8D\L	.	.	8f#/L	.	8B/L	.	.	.	.	.	00r	00r
!LO:SIC:v:s=8D#\	!	!	!	!	!	!	!	!	!	!	!	!
8D\	.	.	8f#/	.	8B/	.	.	.	.	.	.	.
!LO:SIC:v:s=8D#\	!	!	!	!	!	!	!	!	!	!	!	!
8D\	.	.	8f#/	.	8B/	.	.	.	.	.	.	.
!LO:SIC:v:s=8D#\J	!	!	!	!	!	!	!	!	!	!	!	!
8D\J	.	.	8f#/J	.	8B/J	.	.	.	.	.	.	.
4E\	.	.	(16g/LL	.	(16e/LL	.	.	.	.	.	.	.
.	.	.	16a/	.	16cc/	.	.	.	.	.	.	.
.	.	.	16a/	.	16cc/	.	.	.	.	.	.	.
.	.	.	16g/JJ)	.	16b/JJ)	.	.	.	.	.	.	.
4r	.	.	(16g/LL	.	(16b/LL	.	.	.	.	.	.	.
.	.	.	16f#/	.	16a/	.	.	.	.	.	.	.
.	.	.	16f#/	.	16a/	.	.	.	.	.	.	.
.	.	.	16e/JJ)	.	16g/JJ)	.	.	.	.	.	.	.
=33	=33	=33	=33	=33	=33	=33	=33	=33	=33	=33	=33	=33
!	!	!	!	!	!LO:TX:t=P:problem=niejednoznaczny zapis łuku	!	!	!	!	!	!	!
!	!	!	!	!	!LO:TX:t=P:problem=mixed beam	!	!	!	!	!	!	!
4r	.	.	(16e/LL	.	(16g/LL	.	1r	.	.	.	.	.
.	.	.	16b/	.	16gg\	.	.	.	.	.	.	.
.	.	.	16b/	.	16gg\	.	.	.	.	.	.	.
.	.	.	16a/JJ)	.	16ff#\JJ)	.	.	.	.	.	.	.
8r	.	.	(16a/LL	.	(16ff#\LL	.	.	.	.	.	.	.
.	.	.	16g/	.	16ee\)	.	.	.	.	.	.	.
8BB/	.	.	16g/	.	(16ee\	.	.	.	.	.	.	.
.	.	.	16f#/JJ)	.	16dd#X\JJ)	.	.	.	.	.	.	.
!LO:TX:t=P:problem=mixed beam	!	!	!	!	!	!	!	!	!	!	!	!
8E\L	.	.	8g/L	.	8ee\L	.	.	.	.	.	.	.
8G\	#	.	16e/L	.	16e/L	.	.	.	.	.	.	.
.	.	.	16f#/JJ	.	16f#/JJ	.	.	.	.	.	.	.
!	!	!	!	!	!LO:TX:t=P:problem=tryl pod łukiem	!	!	!	!	!	!	!
8B\	.	.	4d#X/	.	4f#t/	.	.	.	.	.	.	.
8BB/J	.	.	.	.	.	.	.	.	.	.	.	.
!	!	!	!LO:TX:b:t=verte cito.:rj	!	!	!	!	!	!	!	!	!
=34	=34	=34	=34	=34	=34	=34	=34	=34	=34	=34	=34	=34
!	!	!	!LO:PB:g=original	!LO:DY:a:t=pia	!LO:LB:g=original	!	!	!	!	!	!	!
8E\L	.	.	8e/L	p	8e/	.	4e\	Do-	.	.	.	.
!	!	!	!	!	!	!LO:DY:a:t=pia	!	!	!	!	!	!
8E\	.	.	8g/	.	4ee\	p	.	.	.	.	.	.
8E\	.	.	8g/	.	.	.	8B\	-mi-	.	.	.	.
*custos:C	*	*	*	*	*	*	*	*	*	*	*	*
!LO:TX:t=P:problem=wszystkie custos użyte jako łamanie pięciolinii	!	!	!	!	!	!	!	!	!	!	!	!
8E\J	.	.	8g/J	.	16b/LL	.	8B\	-ne	.	.	.	.
.	.	.	.	.	16g/JJ	.	.	.	.	.	.	.
!LO:LB:g=original	!	!	!	!	!	!	!	!	!	!	!	!
8E\L	.	.	8g/L	.	8e/L	.	4G\	De-	.	.	.	.
8E\	.	.	8B/	.	8e/	.	.	.	.	.	.	.
8E\	.	.	8g/	.	8e/	.	4E\	-us	.	.	.	.
8E\J	.	.	8g/J	.	8e/J	.	.	.	.	.	.	.
=35	=35	=35	=35	=35	=35	=35	=35	=35	=35	=35	=35	=35
8D#X/L	.	.	8f#/L	.	8d#X/	.	4B\	Rex	00r	.	.	.
8D#/	.	.	8f#/	.	4b\	.	.	.	.	.	.	.
8D#/	.	.	8f#/	.	.	.	4F#\	coe-	.	.	.	.
8D#/J	.	.	8f#/J	.	16f#/LL	.	.	.	.	.	.	.
.	.	.	.	.	16d#X/JJ	.	.	.	.	.	.	.
8D#/L	.	.	8f#/L	.	8B/L	.	4D#X/	-le-	.	.	.	.
8D#/	.	.	8f#/	.	8B/	.	.	.	.	.	.	.
8D#/	.	.	8f#/	.	8B/	.	4BB/	-stis	.	.	.	.
8D#/J	.	.	8f#/J	.	8B/J	.	.	.	.	.	.	.
=36	=36	=36	=36	=36	=36	=36	=36	=36	=36	=36	=36	=36
8E\L	.	.	8g/L	.	8b\L	.	8E\	De-	.	.	00r	00r
8E\	.	.	8g/	.	8b\	.	4e\	-us	.	.	.	.
8G\	.	.	8e/	.	8b\	.	.	.	.	.	.	.
8G\J	.	.	8e/J	.	8b\J	.	8d\	Pa-	.	.	.	.
8A\	.	.	4e/	.	4cc\	.	16c\LL	.	.	.	.	.
.	.	.	.	.	.	.	16B\	.	.	.	.	.
8r	.	.	.	.	.	.	16A\	.	.	.	.	.
.	.	.	.	.	.	.	16G\JJ	.	.	.	.	.
8C/	.	.	4r	.	4r	.	16A\LL	.	.	.	.	.
.	.	.	.	.	.	.	16G\	.	.	.	.	.
8r	.	.	.	.	.	.	16F#\	.	.	.	.	.
.	.	.	.	.	.	.	16E\JJ	.	.	.	.	.
=37	=37	=37	=37	=37	=37	=37	=37	=37	=37	=37	=37	=37
8D\L	.	.	8f#/L	.	8a/L	.	8D/	.	.	.	.	.
8D\	.	.	8f#/	.	8a/	.	4d\	.	.	.	.	.
8F#\	.	.	8d/	.	8a/	.	.	.	.	.	.	.
8F#\J	.	.	8d/J	.	8a/J	.	8c\	.	.	.	.	.
8G\	.	.	4d/	.	4b/	.	16B\LL	.	.	.	.	.
.	.	.	.	.	.	.	16A\	.	.	.	.	.
8r	.	.	.	.	.	.	16G\	.	.	.	.	.
.	.	.	.	.	.	.	16F#\JJ	.	.	.	.	.
8BB/	.	.	4r	.	4r	.	16G\LL	.	.	.	.	.
.	.	.	.	.	.	.	16F#\	.	.	.	.	.
8r	.	.	.	.	.	.	16E\	.	.	.	.	.
.	.	.	.	.	.	.	16D\JJ	.	.	.	.	.
=38	=38	=38	=38	=38	=38	=38	=38	=38	=38	=38	=38	=38
8C/L	.	.	8e/L	.	8g/L	.	8C/	.	.	.	.	.
8C/	.	.	8e/	.	8g/	.	4c\	.	.	.	.	.
8E/	.	.	8c/	.	8g/	.	.	.	.	.	.	.
8E/J	.	.	8c/J	.	8g/J	.	8B\	.	.	.	.	.
8F#\	.	.	4c/	.	4a/	.	16A\LL	.	.	.	.	.
.	.	.	.	.	.	.	16G\	.	.	.	.	.
8r	.	.	.	.	.	.	16F#\	.	.	.	.	.
.	.	.	.	.	.	.	16E\JJ	.	.	.	.	.
8AA/	.	.	4r	.	4r	.	16F#\LL	.	.	.	.	.
.	.	.	.	.	.	.	16E\	.	.	.	.	.
8r	.	.	.	.	.	.	16D#X\	.	.	.	.	.
!	!	!	!	!	!	!	!LO:SIC:v:s=16C#\JJ	!	!	!	!	!
.	.	.	.	.	.	.	16C\JJ	.	.	.	.	.
=39	=39	=39	=39	=39	=39	=39	=39	=39	=39	=39	=39	=39
8BB/L	.	.	8d#X/L	.	8f#/L	.	4BB/	-ter	00r	.	.	.
8BB/	.	.	8d#/	.	8f#/	.	.	.	.	.	.	.
8D#X/	.	.	8d#/	.	8f#/	.	8r	.	.	.	.	.
8D#/J	.	.	8d#/J	.	8f#/J	.	8B\	Pa-	.	.	.	.
!LO:TX:t=P:problem=mixed beam	!	!	!	!	!	!	!	!	!	!	!	!
8E\L	.	.	8e/L	.	8g/L	.	8e\	-ter	.	.	.	.
*	*	*	*	*	*	*	*custos:F#	*	*	*	*	*
8A\	.	.	8a/	.	8a/	.	8A\	o-	.	.	.	.
!	!	!	!	!	!	!	!LO:LB:g=original	!	!	!	!	!
8B\|	.	.	8b/	.	8b/	.	8.B\	-mni-	.	.	.	.
8BB/J	.	.	8B/J	.	8B/J	.	.	.	.	.	.	.
.	.	.	.	.	.	.	16B\	-po-	.	.	.	.
=40	=40	=40	=40	=40	=40	=40	=40	=40	=40	=40	=40	=40
4E\	.	.	4e/	.	4e/	.	4E\	-tens	.	.	00r	00r
8r	.	.	4r	.	4r	.	8E\	Do-	.	.	.	.
8E\	.	.	.	.	.	.	16F#\	-mi-	.	.	.	.
.	.	.	.	.	.	.	16G\	-ne	.	.	.	.
8F#\L	.	.	2r	.	2r	.	8A\	fi-	.	.	.	.
16G\L	x 6	.	.	.	.	.	8B\	-li	.	.	.	.
16E\JJ	.	.	.	.	.	.	.	.	.	.	.	.
4F#\	.	.	.	.	.	.	8c\	u-	.	.	.	.
!	!	!	!	!	!	!	!LO:N:vis=4	!	!	!	!	!
.	.	.	.	.	.	.	8A\	-ni-	.	.	.	.
=41	=41	=41	=41	=41	=41	=41	=41	=41	=41	=41	=41	=41
8G\L	.	.	8r	.	8r	.	16B\	-ge-	.	.	.	.
.	.	.	.	.	.	.	16A\	-ni-	.	.	.	.
8G\	.	.	8b/L	.	8dd\L	.	8G\	-te	.	.	.	.
8D\	.	.	8b/	.	8dd\	.	8d\	Je-	.	.	.	.
8BB\J	.	.	8b/J	.	8dd\J	.	8d\	-su	.	.	.	.
4GG/	.	.	16b/LL	.	16dd\LL	.	16d\LL	Je-	.	.	.	.
.	.	.	16g/	.	16b\	.	16B\	.	.	.	.	.
.	.	.	16a/	.	16cc\	.	16c\	.	.	.	.	.
.	.	.	16b/JJ	.	16dd\JJ	.	16d\JJ	.	.	.	.	.
4r	.	.	8a/L	.	8cc\L	.	8c\	.	.	.	.	.
.	.	.	8g/J	.	8b\J	.	8B\	-su	.	.	.	.
=42	=42	=42	=42	=42	=42	=42	=42	=42	=42	=42	=42	=42
8r	.	.	8r	.	8r	.	8c\	Chri-	.	.	.	.
8D/L	.	.	8a/L	.	8cc\L	.	8A\	.	.	.	.	.
8AA/	.	.	8a/	.	8cc\	.	8c\	-ste	.	.	.	.
*	*	*	*	*	*custos:a	*	*	*	*	*	*	*
8DD/J	.	.	8a/J	.	8cc\J	.	8c\	.	.	.	.	.
!	!	!	!	!	!LO:LB:g=original	!	!	!	!	!	!	!
4DD/	.	.	16a/LL	.	16cc\LL	.	16c\LL	Je-	.	.	.	.
!	!	!	!	!	!LO:TX:a:t=a	!	!	!	!	!	!	!
.	.	.	16f#/	.	16a\	.	16A\	.	.	.	.	.
!	!	!	!	!	!LO:TX:a:t=b	!	!	!	!	!	!	!
.	.	.	16g/	.	16b\	.	16B\	-su	.	.	.	.
*	*	*	*custos:b	*	*	*	*	*	*	*	*	*
.	.	.	16a/JJ	.	16cc\JJ	.	16c\JJ	.	.	.	.	.
!	!	!	!LO:LB:g=original	!	!	!	!	!	!	!	!	!
4r	.	.	8g/L	.	8b\L	.	8B\L	Je-	.	.	.	.
.	.	.	8f#/J	.	8a\J	.	8A\J	.	.	.	.	.
=	=	=	=	=	=	=	=	=	=	=	=	=
!LO:LB:g=original	!	!	!	!	!	!	!	!	!	!	!	!
!LO:TX:t=P:problem=zbędne 4 takty pauzy	!	!	!LO:TX:t=P:problem=zbędne pauzy w org	!	!LO:TX:t=P:problem=zbędne pauzy w org	!	!LO:TX:t=P:problem=zbędne pauzy w org	!	!LO:TX:t=P:problem=zbędne pauzy w org	!	!LO:TX:t=P:problem=zbędne pauzy w org	!LO:TX:t=P:problem=zbędne pauzy w org
1r	.	.	1ryy	.	1ryy	.	1ryy	.	1ryy	.	.	.
=	=	=	=	=	=	=	=	=	=	=	=	=
1r	.	.	1ryy	.	1ryy	.	1ryy	.	1ryy	.	1ryy	1ryy
=	=	=	=	=	=	=	=	=	=	=	=	=
1r	.	.	1ryy	.	1ryy	.	1ryy	.	1ryy	.	1ryy	1ryy
=	=	=	=	=	=	=	=	=	=	=	=	=
1r	.	.	1ryy	.	1ryy	.	1ryy	.	1ryy	.	1ryy	1ryy
=43!||:	=43	=43	=43	=43	=43	=43	=43	=43	=43	=43	=43	=43
8GG/	.	.	8g/L	.	8b\	.	8B\L	.	0r	.	1ryy	1ryy
8r	.	.	8r	.	8r	.	16c\L	.	.	.	.	.
.	.	.	.	.	.	.	16B\JJ	.	.	.	.	.
!LO:TX:a:t=2	!	!	!	!	!	!	!	!	!	!	!	!
8GG/	.	.	8a/J	.	8cc\	.	8c\L	.	.	.	.	.
8r	.	.	8r	.	8r	.	16d\L	.	.	.	.	.
.	.	.	.	.	.	.	16c\JJ	.	.	.	.	.
!LO:TX:a:t=bis	!	!	!	!	!	!	!	!	!	!	!	!
!LO:TX:a:t=3	!	!	!	!	!	!	!	!	!	!	!	!
8GG/	.	.	8b/	.	8dd\	.	8d\L	.	.	.	.	.
8r	.	.	8r	.	8r	.	16e\L	.	.	.	.	.
.	.	.	.	.	.	.	16d\JJ	.	.	.	.	.
!	!	!	!LO:TX:t=P:problem=mixed beam	!	!	!	!	!	!	!	!	!
8C/L	.	.	8cc/L	.	8ee\L	.	8e\L	.	.	.	.	.
8D/J	.	.	8f#/J	.	8a\J	.	8A\J	.	.	.	.	.
=44:||!	=44	=44	=44	=44	=44	=44	=44	=44	=44	=44	=44	=44
!LO:TX:t=P:problem=takt zapisany repetycją	!	!	!	!	!	!	!LO:PB:g=original	!	!	!	!	!
8GG/yy	.	.	8g/	.	8b\	.	8B\L	.	.	.	1r	1r
8ryy	.	.	8r	.	8r	.	16c\L	.	.	.	.	.
.	.	.	.	.	.	.	16B\JJ	.	.	.	.	.
!LO:TX:a:t=2	!	!	!	!	!	!	!	!	!	!	!	!
8GG/yy	.	.	8a/	.	8cc\	.	8c\L	.	.	.	.	.
8ryy	.	.	8r	.	8r	.	16d\L	.	.	.	.	.
.	.	.	.	.	.	.	16c\JJ	.	.	.	.	.
!LO:TX:a:t=3	!	!	!	!	!	!	!	!	!	!	!	!
8GG/yy	.	.	8b/	.	8dd\	.	8d\L	.	.	.	.	.
8ryy	.	.	8r	.	8r	.	16e\L	.	.	.	.	.
.	.	.	.	.	.	.	16d\JJ	.	.	.	.	.
!	!	!	!LO:TX:t=P:problem=mixed beam	!	!	!	!	!	!	!	!	!
8C/Lyy	.	.	8cc\L	.	8ee\L	.	8e\L	.	.	.	.	.
8D/Jyy	.	.	8f#/J	.	8a\J	.	8A\J	.	.	.	.	.
=45	=45	=45	=45	=45	=45	=45	=45	=45	=45	=45	=45	=45
!	!	!	!	!	!	!	!	!	!	!	!	!LO:LB:g=original
8GG/L	.	.	4g/	.	8b/L	.	8B\L	-ſu	1r	.	2r	2r
8C/	.	.	.	.	16g/L	.	16A\L	.	.	.	.	.
.	.	.	.	.	16b/JJ	.	16G\JJ	.	.	.	.	.
!	!	!	!	!	!LO:TX:t=P:problem=mixed beam	!	!	!	!	!	!	!
8D/	.	.	4f#/	.	8dd\L	.	4A\	chri-	.	.	.	.
8DD/J	.	.	.	.	8d/J	.	.	.	.	.	.	.
!LO:TX:t=P:problem=mixed beam	!	!	!	!	!	!	!	!	!	!	!	!
8GG/L	.	.	8g/L	.	8g/	.	4G\	-ste	.	.	4dd\	4dd\
8G\	.	.	8d/ 8b	.	4gg\	.	.	.	.	.	.	.
8G\	.	.	8d/ 8b	.	.	.	4r	.	.	.	4r	4r
8G\J	.	.	8d/J 8b	.	16dd\LL	.	.	.	.	.	.	.
.	.	.	.	.	16b\JJ	.	.	.	.	.	.	.
=46	=46	=46	=46	=46	=46	=46	=46	=46	=46	=46	=46	=46
!	!	!	!	!	!	!	!	!	!LO:N:vis=8	!	!LO:LB:g=original	!
8G\L	.	.	8d/L 8b	.	8g/L	.	8.G\	Do-	8.b\	Do-	8r	8r
8G\	.	.	8d/ 8b	.	8g/	.	.	.	.	.	8gg\L	8bb\L
.	.	.	.	.	.	.	16G\	-mi-	16b\	-mi-	.	.
8G\	.	.	8d/ 8b	.	8g/	.	4G\	-ne	4b\	-ne	8gg\	8bb\
8G\J	.	.	8d/J 8b	.	8g/J	.	.	.	.	.	8gg\J	8bb\J
8F#\L	.	.	8d/L 8a	.	8f#/	.	8F#\	D-	8a\	De-	4ff#\	4aa\
8F#\	.	.	8d/ 8a	.	4dd\	.	8F#\	-eus	8d/	-us	.	.
8F#\	.	.	8d/ 8a	.	.	.	8F#\	A-	8f#/	a-	4r	4r
8F#\J	.	.	8d/J 8a	.	16a/LL	.	8F#\	-gn(us)	8a\	-gn(us)	.	.
.	.	.	.	.	16f#/JJ	.	.	.	.	.	.	.
=47	=47	=47	=47	=47	=47	=47	=47	=47	=47	=47	=47	=47
8F#\L	.	.	8d/L 8a	.	8d/L	.	4F#\	De-	4dd\	De-	8r	8r
8F#\	.	.	8d/ 8a	.	8d/	.	.	.	.	.	8ff#\L	8aa\L
8F#\	.	.	8d/ 8a	.	8d/	.	4F#\	-i	4dd\	-i	8ff#\	8aa\
8F#\J	.	.	8d/J 8a	.	8d/J	.	.	.	.	.	8ff#\J	8aa\J
4G\	.	.	4d/ 4b	.	16g/LL	.	2r	.	4g\	Do-	4gg\	4bb\
.	.	.	.	.	16g/	.	.	.	.	.	.	.
.	.	.	.	.	16g/	.	.	.	.	.	.	.
.	.	.	.	.	16g/JJ	.	.	.	.	.	.	.
4r	.	.	4r	.	16cc\LL	.	.	.	8cc\	-mi-	4r	4r
.	.	.	.	.	16cc\	.	.	.	.	.	.	.
.	.	.	.	.	16cc\	.	.	.	8cc\	-ne	.	.
.	.	.	.	.	16cc\JJ	.	.	.	.	.	.	.
=48	=48	=48	=48	=48	=48	=48	=48	=48	=48	=48	=48	=48
*	*	*	*	*	*	*	*	*ij	*	*	*	*
!LO:SIC:v:s=4GG/	!	!	!	!	!	!	!LO:SIC:v:s=4G\	!	!LO:LB:g=original	!	!	!
4AA/	.	.	16g/LL	.	16b\LL	.	4E\	Do-	4b\	De-	2r	2ree
.	.	.	16g/	.	16b\	.	.	.	.	.	.	.
.	.	.	16g/	.	16b\	.	.	.	.	.	.	.
.	.	.	16g/JJ	.	16b\JJ	.	.	.	.	.	.	.
!	!	!	!LO:N:vis=8	!	!	!	!	!	!	!	!	!
4r	.	.	16cc/LL	.	16ee\LL	.	8c\	-mi-	4ee\	-us	.	.
!	!	!	!LO:N:vis=8	!	!	!	!	!	!	!	!	!
.	.	.	16cc/	.	16ee\	.	.	.	.	.	.	.
!	!	!	!LO:N:vis=8	!	!	!	!	!	!	!	!	!
.	.	.	16cc/	.	16ee\	.	8c\	-ne	.	.	.	.
!	!	!	!LO:N:vis=8	!	!	!	!	!	!	!	!	!
.	.	.	16cc/JJ	.	16ee\JJ	.	.	.	.	.	.	.
16G\LL	.	.	16b\LL	.	16dd\LL	.	8B\	De-	4dd\	a-	8r	8r
16G\	.	.	16b\	.	16dd\	.	.	.	.	.	.	.
16G\	.	.	16b\	.	16dd\	.	8B\	-us	.	.	16dd\LL	16dd\LL
16G\JJ	.	.	16b\JJ	.	16dd\JJ	.	.	.	.	.	16dd\JJ	16dd\J
16G\LL	.	.	16gg\LL	.	16bb\LL	.	8B\	A-	4gg\	-gnus	8dd\L	8dd\
16G\	.	.	16gg\	.	16bb\	.	.	.	.	.	.	.
16G\	.	.	16gg\	.	16bb\	.	8G\	-gnus	.	.	8dd\J	8dd\J
16G\JJ	.	.	16gg\JJ	.	16bb\JJ	.	.	.	.	.	.	.
=49	=49	=49	=49	=49	=49	=49	=49	=49	=49	=49	=49	=49
!	!	!	!	!	!LO:LB:g=original	!	!	!	!	!	!	!
16d\LL	.	.	16ff#\LL	.	16aa\LL	.	4d\	De-	4ff#\	De-	4dd\	4dd\
16d\	.	.	16ff#\	.	16aa\	.	.	.	.	.	.	.
16d\	.	.	16ff#\	.	16aa\	.	.	.	.	.	.	.
16d\JJ	.	.	16ff#\JJ	.	16aa\JJ	.	.	.	.	.	.	.
16d\LL	.	.	16aa\LL	.	16ccc\LL	.	4d\	-i	4ff#\	-i	4r	4r
*	*	*	*	*	*	*	*	*Xij	*	*	*	*
16d\	.	.	16aa\	.	16ccc\	.	.	.	.	.	.	.
16d\	.	.	16aa\	.	16ccc\	.	.	.	.	.	.	.
*	*	*	*custos:cc	*	*	*	*	*	*	*	*	*
16d\JJ	.	.	16aa\JJ	.	16ccc\JJ	.	.	.	.	.	.	.
!	!	!	!LO:TX:t=P:problem=mixed beam	!	!	!	!	!	!	!	!	!
!	!	!	!LO:LB:g=original	!	!	!	!	!	!	!	!	!
8G\L	.	.	8gg\L	.	24bb\LL	.	8r	.	4gg\	Fi-	4dd\	4dd\
.	.	.	.	.	24aa\	.	.	.	.	.	.	.
.	.	.	.	.	24gg\JJ	.	.	.	.	.	.	.
8G\	.	.	8b/	.	(16ff#\LL	.	8G\	Fi-	.	.	.	.
.	.	.	.	.	16gg\JJ)	.	.	.	.	.	.	.
!	!	!	!	!	!	!	!LO:SIC:v:l:s=-li-	!	!LO:SIC:v:l:s=-li-	!	!	!
8G\	.	.	8b/	.	(16.ff#\LL	.	8B\	-lu-	8gg\	-lu-	4r	4r
.	.	.	.	.	32gg\K)	.	.	.	.	.	.	.
!	!	!	!	!	!	!	!LO:SIC:v:l:s=-us	!	!LO:SIC:v:l:s=-us	!	!	!
8G\J	.	.	8b/J	.	(16.ff#\	.	8G\	-is	8gg\	-is	.	.
.	.	.	.	.	32gg\JJk)	.	.	.	.	.	.	.
=50	=50	=50	=50	=50	=50	=50	=50	=50	=50	=50	=50	=50
*	*	*	*	*	*	*	*	*	*	*ij	*	*
8E\L	.	.	8b\L	.	24bb\LL	.	8r	.	4gg\	fi-	8r	8r
.	.	.	.	.	24aa\	.	.	.	.	.	.	.
.	.	.	.	.	24gg\JJ	.	.	.	.	.	.	.
8E\	.	.	8b\	.	(16ff#\LL	.	8E\	Fi-	.	.	8gg\L	8bb\L
.	.	.	.	.	16gg\JJ)	.	.	.	.	.	.	.
!	!	!	!	!	!	!	!LO:SIC:v:l:s=-li-	!	!LO:SIC:v:l:s=-li-	!	!	!
8E\	.	.	8b\	.	(16.ff#\LL	.	8G\	-lu-	8gg\	-lu-	8gg\	8bb\
.	.	.	.	.	32gg\K	.	.	.	.	.	.	.
!	!	!	!	!	!	!	!LO:SIC:v:l:s=-us	!	!LO:SIC:v:l:s=-us	!	!	!
8E\J	.	.	8b\J	.	16.ff#\	.	8E\	-is	8gg\	-is	8gg\J	8bb\J
*	*	*	*	*	*	*	*	*	*	*Xij	*	*
.	.	.	.	.	32gg\JJk)	.	.	.	.	.	.	.
!	!	!	!	!	!	!	!LO:LB:g=original	!	!	!	!	!
4BB/	.	.	16b\LL	.	16bb\LL	.	4BB/	Pa-	8gg\L	pa-	4gg\	4bb\
.	.	.	16bb\	.	16gg\	.	.	.	.	.	.	.
.	.	.	16aa\	.	16ff#\	.	.	.	16ff#\L	.	.	.
.	.	.	16gg\JJ	.	16ee\JJ	.	.	.	16ee\JJ	.	.	.
8r	.	.	16ff#\LL	.	16dd\LL	.	8r	.	16dd\LL	.	8r	8r
.	.	.	16ee\	.	16cc\	.	.	.	16cc\	.	.	.
8C/	.	.	16dd\	.	16b\	.	8C/	.	16b\	.	8ee\	8aa\
.	.	.	16cc\JJ	.	16a\JJ	.	.	.	16a\JJ	.	.	.
=51	=51	=51	=51	=51	=51	=51	=51	=51	=51	=51	=51	=51
4D\	.	.	8b/L	.	4g/	.	2D/	.	4g\	.	4dd\	4gg\
.	.	.	16b/L	.	.	.	.	.	.	.	.	.
.	.	.	16g/JJ	.	.	.	.	.	.	.	.	.
!	!	!	!	!	!LO:TX:t=P:problem=trillo pod łukiem	!	!	!	!	!	!	!
!	!	!	!	!	!LO:TX:a:B:t=t	!	!	!	!	!	!	!
4DD/	.	.	4f#/	.	4a/	.	.	.	4a\	-tris	4dd\	4ff#\
!LO:TX:t=P:problem=mixed beam	!	!	!	!	!LO:TX:t=P:problem=mixed beam	!	!	!	!	!	!	!
8GG/L	.	.	8g/L	.	(32g/KLL	.	8GG/	-tris	8g\	.	4dd\	4gg\
.	.	.	.	.	16.gg\	.	.	.	.	.	.	.
8G\	.	.	8b/	.	32ff#\K	.	8G\	Fi-	8gg\	fi-	.	.
.	.	.	.	.	16.gg\JJ)	.	.	.	.	.	.	.
!	!	!	!	!	!	!	!LO:SIC:v:l:s=-li-	!	!LO:SIC:v:l:s=-li-	!	!	!
8G\	.	.	8b/	.	(32ff#\KLL	.	8B\	-lu-	8gg\	-lu-	4r	4r
.	.	.	.	.	16.gg\	.	.	.	.	.	.	.
!	!	!	!	!	!	!	!LO:SIC:v:l:s=-us	!	!LO:SIC:v:l:s=-us	!	!	!
8G\J	.	.	8b/J	.	32ff#\K	.	8G\	-is	8gg\	-is	.	.
.	.	.	.	.	16.gg\JJ)	.	.	.	.	.	.	.
=52	=52	=52	=52	=52	=52	=52	=52	=52	=52	=52	=52	=52
*	*	*	*	*	*	*	*	*ij	*	*ij	*	*
8E\L	.	.	8b/L	.	24bb\LL	.	4E\	Fi-	4gg\	fi-	8r	8r
.	.	.	.	.	24aa\	.	.	.	.	.	.	.
.	.	.	.	.	24gg\JJ	.	.	.	.	.	.	.
8E\	.	.	8b/	.	(16ff#\LL	.	.	.	.	.	8gg\L	8bb\L
.	.	.	.	.	16gg\JJ)	.	.	.	.	.	.	.
!	!	!	!	!	!	!	!LO:SIC:v:l:s=-li-	!	!LO:SIC:v:l:s=-li-	!	!	!
8E\	.	.	8b/	.	(16.ff#\LL	.	8E\	-lu-	8gg\	-lu-	8gg\	8bb\
.	.	.	.	.	32gg\K	.	.	.	.	.	.	.
!	!	!	!	!	!	!	!LO:SIC:v:l:s=-us	!	!LO:SIC:v:l:s=-us	!	!	!
8E\J	.	.	8b/J	.	16.ff#\	.	8E\	-is	8gg\	-is	8gg\J	8bb\J
*	*	*	*	*	*	*	*	*Xij	*	*Xij	*	*
.	.	.	.	.	32gg\JJk)	.	.	.	.	.	.	.
4BB/	.	.	16b\LL	.	16bb\LL	.	4BB/	Pa-	8gg\L	pa-	4gg\	4bb\
.	.	.	16bb\	.	16gg\	.	.	.	.	.	.	.
.	.	.	16aa\	.	16ff#\	.	.	.	16ff#\L	.	.	.
.	.	.	16gg\JJ	.	16ee\JJ	.	.	.	16ee\JJ	.	.	.
8r	.	.	16ff#\LL	.	16dd\LL	.	8r	.	16dd\LL	.	8r	8r
.	.	.	16ee\	.	16cc\	.	.	.	16cc\	.	.	.
8C/	.	.	16dd\	.	16b\	.	8C/	.	16b\	.	8ee\	8aa\
.	.	.	16cc\JJ	.	16a\JJ	.	.	.	16a\JJ	.	.	.
=53	=53	=53	=53	=53	=53	=53	=53	=53	=53	=53	=53	=53
!LO:TX:t=P:problem=mixed beam	!	!	!	!	!	!	!	!	!	!	!	!
!LO:LB:g=original	!	!	!	!	!	!	!	!	!	!	!	!
8D\L	.	.	8b/L	.	4g/	.	2D/	.	4g\	.	4dd\	4gg\
8D\	.	.	16a/L	.	.	.	.	.	.	.	.	.
.	.	.	16g/JJ	.	.	.	.	.	.	.	.	.
!	!	!	!LO:TX:t=P:problem=trillo pod łukiem	!	!	!	!	!	!	!	!	!
!	!	!	!LO:TX:a:B:t=t	!	!LO:TX:a:B:t=t	!	!	!	!	!	!	!
8DD/	.	.	4f#/	.	4a/	.	.	.	4a\	-tris	4dd\	4ff#\
8DD/J	.	.	.	.	.	.	.	.	.	.	.	.
!LO:TX:t=P:problem=mixed beam	!	!	!	!	!	!	!	!	!	!	!	!
8GG/L	.	.	16g/LL	.	16g/LL	.	4GG/	-tris	4g\	.	4dd\	4gg\
.	.	.	16g/	.	16g/	.	.	.	.	.	.	.
8B\	.	.	16b/	.	16b/	.	.	.	.	.	.	.
.	.	.	16b/JJ	.	16b/JJ	.	.	.	.	.	.	.
!	!	!	!	!	!	!	!	!	!	!	!LO:TX:t=P:problem=kreska taktowa podwójna	!
8E\	.	.	16e/LL	.	16e/LL	.	4r	.	4r	.	4r	4r
.	.	.	16e/	.	16e/	.	.	.	.	.	.	.
8G\J	.	.	16g/	.	16g/	.	.	.	.	.	.	.
.	.	.	16g/JJ	.	16g/JJ	.	.	.	.	.	.	.
=54	=54	=54	=54	=54	=54	=54	=54	=54	=54	=54	=54||	=54
!	!	!	!	!	!LO:LB:g=original	!	!	!	!	!	!	!LO:TX:a:t=1
8C\L	.	.	16c/LL	.	16c/LL	.	1r	.	1r	.	1r	1r
.	.	.	16c/	.	16c/	.	.	.	.	.	.	.
8E\	.	.	16e/	.	16e/	.	.	.	.	.	.	.
.	.	.	16e/JJ	.	16e/JJ	.	.	.	.	.	.	.
8AA\	.	.	16A/LL	.	16A/LL	.	.	.	.	.	.	.
.	.	.	16A/	.	16A/	.	.	.	.	.	.	.
8C\J	.	.	16c/	.	16c/	.	.	.	.	.	.	.
.	.	.	16c/JJ	.	16c/JJ	.	.	.	.	.	.	.
*	*	*	*Xtuplet	*	*	*	*	*	*	*	*	*
!	!	!	!LO:TX:t=P:global:problem=klamra łukowa	!	!	!	!	!	!	!	!	!
!	!	!	!	!	!LO:TX:t=P:problem=triola bez liczby i łuku	!	!	!	!	!	!	!
8BB/L	.	.	24B/LL	.	24B/LL	.	.	.	.	.	.	.
.	.	.	24A/	.	24A/	.	.	.	.	.	.	.
.	.	.	24G/JJ	.	24G/JJ	.	.	.	.	.	.	.
!	!	!	!	!	!LO:TX:t=P:problem=triola bez liczby i łuku	!	!	!	!	!	!	!
8C/	.	.	24c/LL	.	24c/LL	.	.	.	.	.	.	.
.	.	.	24B/	.	24B/	.	.	.	.	.	.	.
.	.	.	24A/JJ	.	24A/JJ	.	.	.	.	.	.	.
8D/	.	.	8d/L	.	8d/L	.	.	.	.	.	.	.
!	!	!	!LO:TX:t=P:problem=kreska taktowa podwójna	!	!	!	!	!	!	!	!	!
8DD/J	.	.	8d/J	.	8d/J	.	.	.	.	.	.	.
=55||	=55||	=55||	=55||	=55||	=55||	=55||	=55||	=55||	=55||	=55||	=55||	=55||
!	!	!	!LO:LB:g=original	!	!	!	!	!	!	!	!	!
!LO:TX:a:B:t=Adagio	!	!	!LO:TX:a:B:t=Adagio	!	!LO:TX:a:B:t=Adagio	!	!LO:TX:a:B:t=Adagio	!	!LO:TX:a:B:t=Adagio:rj	!	!LO:TX:a:B:t=Adagio	!LO:TX:a:B:t=Adagio
4GG/	.	.	4G/	.	4G/	.	4r	.	4r	.	0r	0r
4G\	.	.	8b-X/L	.	4dd\	.	4G\	Qui	4dd\	Qui	.	.
.	.	.	8b-/J	.	.	.	.	.	.	.	.	.
4G\	.	.	4b-/	.	4ee\	.	4G\	tol-	4cc#X\	tol-	.	.
4G\	.	.	4b-/	.	4ee\	.	4G\	-lis	4cc#\	-lis	.	.
=56	=56	=56	=56	=56	=56	=56	=56	=56	=56	=56	=56	=56
8r	.	.	8r	.	8r	.	8r	.	8r	.	.	.
!	!	!	!LO:SIC:v:s=8b-/L	!	!	!	!	!	!	!	!	!
8G\L	.	.	8b/L	.	8ee\L	.	8G\L|	pec-	8cc#X\	pec-	.	.
!	!	!	!LO:SIC:v:s=8b-/	!	!	!	!	!	!	!	!	!
8G\	.	.	8b/	.	8ee\	.	8G\|	-ca-	8ee\	-ca-	.	.
!	!	!	!LO:SIC:v:s=8b-/J	!	!	!	!	!	!	!	!	!
8G\J	.	.	8b/J	.	8ee\J	.	8G\J|	-ta	8cc#\	-ta	.	.
!	!	!	!LO:SIC:v:s=2b-/	!	!	!	!	!	!	!	!	!
2C#X/	x 6	.	2b/	.	2ee\	.	2C#X/	mun-	2g/	mundi	.	.
.	x 2	.	.	.	.	.	.	.	.	.	.	.
=57	=57	=57	=57	=57	=57	=57	=57	=57	=57	=57	=57	=57
!	!	!	!	!	!	!	!	!	!LO:N:vis=2.	!	!	!
1D;<	x #	.	1a;	.	1dd	.	1D	-di	1f#X	mundi.	1r	1r
!	!	!	!	!	!	!	!	!	!LO:TX:b:t=Verte cito.	!	!	!
=58||	=58||	=58||	=58||	=58||	=58||	=58||	=58||	=58||	=58||	=58||	=58||	=58||
*k[e-b-]	*	*	*k[e-b-]	*	*k[e-b-]	*	*k[b-e-]	*	*k[e-3b-]	*	*k[f#c#]	*k[f#c#]
*M3/4	*	*	*M3/4	*	*M3/4	*	*M3/4	*	*M3/4	*	*M3/4	*M3/4
!	!	!	!	!	!	!	!	!	!LO:TX:t=P:problem=partia na str. 5	!	!	!
!	!	!	!	!	!LO:TX:a:t=Solo	!	!	!	!LO:TX:t=P:problem=brak oznaczenia tempa	!	!LO:LB:g=original	!LO:LB:g=original
!LO:TX:a:B:t=Tarde solo	!	!	!LO:TX:a:B:t=Tarde	!	!LO:TX:a:B:t=Tarde:rj	!	!LO:TX:a:B:t=Qui tollis tacet	!	!LO:TX:t=P:problem=kolejność znaków ee- b-	!	!LO:TX:a:B:t=Qui tollis tacet	!LO:TX:a:B:t=Quonia(m) tacet
4G\	x 6	.	4b-/	.	8g/	.	2.ryy	.	0.r	.	2.ryy	2.ryy
.	.	.	.	.	4b-/	.	.	.	.	.	.	.
4G\	.	.	4b-/	.	.	.	.	.	.	.	.	.
.	.	.	.	.	4dd\	.	.	.	.	.	.	.
4G\	.	.	4b-/	.	.	.	.	.	.	.	.	.
.	.	.	.	.	16gg\LL	.	.	.	.	.	.	.
.	.	.	.	.	16bb-X\JJ	.	.	.	.	.	.	.
=59	=59	=59	=59	=59	=59	=59	=59	=59	=59	=59	=59	=59
4F#X\	.	.	4a/	.	16aa\LL	.	2.ryy	.	.	.	2.ryy	2.ryy
.	.	.	.	.	16gg\	.	.	.	.	.	.	.
.	.	.	.	.	16ff#X\	.	.	.	.	.	.	.
.	.	.	.	.	16ee-X\JJ	.	.	.	.	.	.	.
!	!	!	!	!	!LO:TX:t=P:problem=mixed beam	!	!	!	!	!	!	!
4F#\	.	.	4a/	.	8dd\L	.	.	.	.	.	.	.
.	.	.	.	.	8d/J	.	.	.	.	.	.	.
.	.	.	.	.	8qqdd/	.	.	.	.	.	.	.
4F#\	.	.	4a/	.	8cc\L	.	.	.	.	.	.	.
.	.	.	.	.	16b-\L	.	.	.	.	.	.	.
.	.	.	.	.	16a\JJ	.	.	.	.	.	.	.
=60	=60	=60	=60	=60	=60	=60	=60	=60	=60	=60	=60	=60
4G\	.	.	4b-/	.	4b-/	.	2.ryy	.	.	.	2.ryy	2.ryy
4GG/	.	.	8g/L	.	8g/L	.	.	.	.	.	.	.
.	.	.	16g/L	.	16g/L	.	.	.	.	.	.	.
.	.	.	16a/JJ	.	16a/JJ	.	.	.	.	.	.	.
4r	.	.	16b-\LL	.	(16b-\LL	.	.	.	.	.	.	.
!	!	!	!	!	!LO:SIC:v:s=16b-	!	!	!	!	!	!	!
.	.	.	16b-\	.	16cc\	.	.	.	.	.	.	.
.	.	.	16cc\	.	16cc\	.	.	.	.	.	.	.
.	.	.	16dd\JJ	.	16dd\JJ)	.	.	.	.	.	.	.
=61	=61	=61	=61	=61	=61	=61	=61	=61	=61	=61	=61	=61
.	.	.	16qqcc/LL	.	16qqcc/LL	.	.	.	.	.	.	.
*	*	*	*	*	*custos:a	*	*	*	*	*	*	*
.	.	.	16qqdd/JJ	.	16qqdd/JJ	.	.	.	.	.	.	.
4F#X\	x 6	.	4ee-\	.	4ee-\	.	2.ryy	.	.	.	2.ryy	2.ryy
.	x 2	.	.	.	.	.	.	.	.	.	.	.
!	!	!	!	!	!LO:TX:t=P:problem=kolejność znaków b- ee-	!	!	!	!	!	!	!
!	!	!	!LO:TX:t=P:problem=mixed beam	!	!LO:TX:t=P:problem=mixed beam	!	!	!	!	!	!	!
!	!	!	!	!	!LO:LB:g=original	!	!	!	!	!	!	!
8G\L	x 6	.	8dd\L	.	8dd\L	.	.	.	.	.	.	.
8A\	.	.	8d/	.	8f#X/	.	.	.	.	.	.	.
!	!	!	!LO:SIC:v:s=8en/	!	!	!	!	!	!	!	!	!
8B-\	.	.	8e-/	.	8g/	.	.	.	.	.	.	.
!	!	!	!LO:SIC:v:s=8f#/J	!	!	!	!	!	!	!	!	!
8c\J	.	.	8f/J	.	8a/J	.	.	.	.	.	.	.
=62	=62	=62	=62	=62	=62	=62	=62	=62	=62	=62	=62	=62
4d\	.	.	8g/L	.	8b-\L	.	2.ryy	.	0.r	.	2.ryy	2.ryy
.	.	.	8f#X/J	.	8a\J	.	.	.	.	.	.	.
4DD/	.	.	8r	.	8r	.	.	.	.	.	.	.
.	.	.	8f#/	.	8dd\	.	.	.	.	.	.	.
4r	.	.	8f#/L	.	8a/L	.	.	.	.	.	.	.
.	.	.	16g/L	.	(16b-/L	.	.	.	.	.	.	.
.	.	.	16en/JJ	.	16g/JJ)	.	.	.	.	.	.	.
=63	=63	=63	=63	=63	=63	=63	=63	=63	=63	=63	=63	=63
8r	.	.	16d/LL	.	16f#X/LL	.	2.ryy	.	.	.	2.ryy	2.ryy
.	.	.	16en/J	.	16g/J	.	.	.	.	.	.	.
8D\	.	.	8f#X/J	.	8a/J	.	.	.	.	.	.	.
4DD/	.	.	8r	.	8r	.	.	.	.	.	.	.
.	.	.	8f#/	.	8dd\	.	.	.	.	.	.	.
4r	.	.	8f#/L	.	8a/L	.	.	.	.	.	.	.
.	.	.	16g/L	.	(16b-/L	.	.	.	.	.	.	.
!	!	!	!LO:TX:b:t=e	!	!	!	!	!	!	!	!	!
.	.	.	16en/JJ	.	16g/JJ)	.	.	.	.	.	.	.
=64	=64	=64	=64	=64	=64	=64	=64	=64	=64	=64	=64	=64
2D/	.	.	16d/LL	.	(16f#X/LL	.	2.ryy	.	.	.	2.ryy	2.ryy
.	.	.	16en/	.	16g/	.	.	.	.	.	.	.
.	.	.	16e/	.	16g/	.	.	.	.	.	.	.
*	*	*	*custos:b	*	*	*	*	*	*	*	*	*
!	!	!	!LO:SIC:v:s=16f#/JJ	!	!	!	!	!	!	!	!	!
.	.	.	16f/JJ	.	16a/JJ)	.	.	.	.	.	.	.
!	!	!	!LO:SIC:v:s=16f#/LL	!	!	!	!	!	!	!	!	!
!	!	!	!LO:LB:g=original	!	!	!	!	!	!	!	!	!
.	.	.	(16f/LL	.	(16a/LL	.	.	.	.	.	.	.
.	.	.	16g/	.	16b-/	.	.	.	.	.	.	.
.	.	.	16g/	.	16b-/	.	.	.	.	.	.	.
.	.	.	16a/JJ)	.	16cc/JJ)	.	.	.	.	.	.	.
4r	.	.	(16a/LL	.	(16cc\LL	.	.	.	.	.	.	.
.	.	.	16b-/	.	16dd\	.	.	.	.	.	.	.
.	.	.	16b-/	.	16dd\	.	.	.	.	.	.	.
.	.	.	16cc/JJ)	.	16ee-\JJ)	.	.	.	.	.	.	.
=65	=65	=65	=65	=65	=65	=65	=65	=65	=65	=65	=65	=65
4c\	.	.	8r	.	8r	.	2.ryy	.	.	.	2.ryy	2.ryy
.	.	.	8cc\L	.	8ee-\L	.	.	.	.	.	.	.
4A\	.	.	8r	.	8r	.	.	.	.	.	.	.
.	.	.	8cc\	.	8ee-\J	.	.	.	.	.	.	.
4F#X\	.	.	8r	.	8r	.	.	.	.	.	.	.
!	!	!	!LO:N:vis=8	!	!	!	!	!	!	!	!	!
.	.	.	16cc\Jk	.	8ee-\	.	.	.	.	.	.	.
!	!	!	!LO:N:vis=8	!	!	!	!	!	!	!	!	!
.	.	.	16r	.	.	.	.	.	.	.	.	.
=66	=66	=66	=66	=66	=66	=66	=66	=66	=66	=66	=66	=66
8G\L	.	.	8b-/L	.	(16dd\LL	.	2.ryy	.	1.r	.	2.ryy	2.ryy
.	.	.	.	.	16b-\	.	.	.	.	.	.	.
8C\J	.	.	16a/L	.	16a\	.	.	.	.	.	.	.
.	.	.	16g/JJ	.	16g\JJ)	.	.	.	.	.	.	.
4D\	x #	.	4d/	.	4d/	.	.	.	.	.	.	.
!	!	!	!	!	!LO:TX:t=P:problem=trillo pod łukiem	!	!	!	!	!	!	!
!	!	!	!	!	!LO:TX:a:B:t=t	!	!	!	!	!	!	!
4DD/	.	.	4f#X/	.	4a/	.	.	.	.	.	.	.
=67	=67	=67	=67	=67	=67	=67	=67	=67	=67	=67	=67	=67
!LO:TX:t=P:problem=mixed beam	!	!	!	!	!LO:TX:t=P:problem=mixed beam	!	!	!	!	!	!	!
8GG/L	.	.	8g/L	.	8g/L	.	2.ryy	.	.	.	2.ryy	2.ryy
*custos:D	*	*	*	*	*	*	*	*	*	*	*	*
!LO:TX:b:t=[ſeqt] ultra.	!	!	!	!	!	!	!	!	!	!	!	!
!	!	!	!	!	!	!LO:DY:b:t=pia	!	!	!	!	!	!
8c\J	.	.	8cc/J	.	8ee-\J	p	.	.	.	.	.	.
!LO:PB:g=original	!	!	!	!	!	!	!	!	!	!	!	!
4A\	.	.	8r	.	8r	.	.	.	.	.	.	.
.	.	.	8cc\	.	8ee-\	.	.	.	.	.	.	.
4F#X\	.	.	8r	.	8r	.	.	.	.	.	.	.
.	.	.	8cc\	.	8ee-\	.	.	.	.	.	.	.
=68	=68	=68	=68	=68	=68	=68	=68	=68	=68	=68	=68	=68
!LO:TX:b:t=finis	!	!	!	!	!	!	!	!	!	!	!	!
8G\L	.	.	16b-/LL	.	16dd/LL	.	2.ryy	.	2.r	.	2.ryy	2.ryy
.	.	.	16b-/	.	16b-/	.	.	.	.	.	.	.
8C\J	.	.	16a/	.	16a/	.	.	.	.	.	.	.
!	!	!	!LO:TX:b:t=finis	!	!LO:TX:b:t=finis	!	!	!	!	!	!	!
.	.	.	16g/JJ	.	16g/JJ	.	.	.	.	.	.	.
4D\	.	.	4d/	.	4d/	.	.	.	.	.	.	.
4DD/	.	.	4f#X/	.	4a/	.	.	.	.	.	.	.
=69	=69	=69	=69	=69	=69	=69	=69	=69	=69	=69	=69	=69
!	!	!	!	!	!	!	!	!	!LO:TX:t=Solo:rj	!	!	!
4GG;</	.	.	4g;/	.	8g;;/	.	2.ryy	.	2.dd\	Qui	2.ryy	2.ryy
.	.	.	.	.	4b-\	.	.	.	.	.	.	.
!	!	!	!	!LO:DY:b:t=pia	!	!	!	!	!	!	!	!
4G\	.	.	4b-/	p	.	.	.	.	.	.	.	.
!	!	!	!	!	!LO:LB:g=original	!LO:DY:a:t=pia	!	!	!	!	!	!
.	.	.	.	.	4dd\	p	.	.	.	.	.	.
!	!	!LO:DY:t=pia:b	!	!	!	!	!	!	!	!	!	!
4G\	.	p	4b-/	.	.	.	.	.	.	.	.	.
.	.	.	.	.	16gg\LL	.	.	.	.	.	.	.
.	.	.	.	.	16bb-\JJ	.	.	.	.	.	.	.
=70	=70	=70	=70	=70	=70	=70	=70	=70	=70	=70	=70	=70
4F#X\	.	.	4a/	.	16aa\LL	.	2.ryy	.	4dd\	tol-	2.ryy	2.ryy
.	.	.	.	.	16gg\	.	.	.	.	.	.	.
.	.	.	.	.	16ff#X\	.	.	.	.	.	.	.
.	.	.	.	.	16ee-\JJ	.	.	.	.	.	.	.
!	!	!	!	!	!LO:TX:t=P:problem=mixed beam	!	!	!	!	!	!	!
4F#\	.	.	4a/	.	8dd\L	.	.	.	(8a\L	-lis	.	.
.	.	.	.	.	8d/J	.	.	.	8b-\J)	.	.	.
.	.	.	.	.	8qqdd/	.	.	.	.	.	.	.
4F#\	.	.	4a/	.	8cc\L	.	.	.	4cc\	pec-	.	.
.	.	.	.	.	16b-\L	.	.	.	.	.	.	.
.	.	.	.	.	16a\JJ	.	.	.	.	.	.	.
=71	=71	=71	=71	=71	=71	=71	=71	=71	=71	=71	=71	=71
4G\	.	.	4d/	.	4b-/	.	2.ryy	.	4b-\	-ca-	2.ryy	2.ryy
.	.	.	.	.	.	.	.	.	8qqa/	.	.	.
4GG/	.	.	4d/	.	8g/L	.	.	.	4g\	-ta	.	.
.	.	.	.	.	16g/L	.	.	.	.	.	.	.
.	.	.	.	.	16a/JJ	.	.	.	.	.	.	.
4r	.	.	4r	.	16b-\LL|	.	.	.	4dd\	qui	.	.
.	.	.	.	.	(16b-\	.	.	.	.	.	.	.
.	.	.	.	.	16cc\	.	.	.	.	.	.	.
.	.	.	.	.	16dd\JJ)	.	.	.	.	.	.	.
=72	=72	=72	=72	=72	=72	=72	=72	=72	=72	=72	=72	=72
.	.	.	.	.	(16qqcc/LL	.	.	.	(16qqcc/LL	.	.	.
.	.	.	.	.	16qqdd/JJ)	.	.	.	16qqdd/JJ)	.	.	.
4F#X\	x 6	.	4cc\	.	4ee-\	.	2.ryy	.	4ee-\	tol-	2.ryy	2.ryy
.	x 2	.	.	.	.	.	.	.	.	.	.	.
!	!	!	!LO:TX:t=P:problem=mixed beam	!	!LO:TX:t=P:problem=mixed beam	!	!	!	!	!	!	!
8G\L	.	.	8b-\L	.	8dd\L	.	.	.	8dd\	-lis	.	.
8A\	.	.	8d/	.	8f#X/	.	.	.	8f#X/	pec-	.	.
8B-\	.	.	8en/	.	8g/	.	.	.	8g/	-ca-	.	.
8c\J	.	.	8f#X/J	.	8a/J	.	.	.	8a/	-ta	.	.
=73	=73	=73	=73	=73	=73	=73	=73	=73	=73	=73	=73	=73
4d\	.	.	4g/	.	4b-\	.	2.ryy	.	4b-\	mun-	2.ryy	2.ryy
4D/	.	.	4f#X/	.	4a\	.	.	.	4a\	-di	.	.
4r	.	.	4r	.	4r	.	.	.	4r	.	.	.
=74	=74	=74	=74	=74	=74	=74	=74	=74	=74	=74	=74	=74
.	.	.	.	.	.	.	.	.	8qqcc/	.	.	.
8Fn\L	.	.	8g/L	.	8dd\L	.	2.ryy	.	4.bn\	ſu-	2.ryy	2.ryy
8F\	2 4	.	8g/	.	8dd\	.	.	.	.	.	.	.
8F\	.	.	8g/	.	8dd\	.	.	.	.	.	.	.
8F\	.	.	8g/	.	8dd\	.	.	.	8b\	-sci-	.	.
8F\	.	.	8g/	.	8dd\	.	.	.	4b\	-pe	.	.
8F\J	.	.	8g/J	.	8dd\J	.	.	.	.	.	.	.
=75	=75	=75	=75	=75	=75	=75	=75	=75	=75	=75	=75	=75
!	!	!	!LO:LB:g=original	!	!LO:TX:t=P:problem=mixed beam	!	!	!	!	!	!	!
2E-\	x 6	.	4g/	.	8gg\L	.	2.ryy	.	8cc\	de-	2.ryy	2.ryy
.	.	.	.	.	8bn\	.	.	.	8dd\	-pre-	.	.
.	.	.	4r	.	8cc\	.	.	.	8ee-\	-ca-	.	.
.	.	.	.	.	8dd\	.	.	.	8ff\	-ti-	.	.
4r	.	.	4r	.	8ee-\	.	.	.	8gg\	-o-	.	.
.	.	.	.	.	8g/J	.	.	.	8b-X\	-nem	.	.
=76	=76	=76	=76	=76	=76	=76	=76	=76	=76	=76	=76	=76
8E-\L	.	.	8f/L	.	8cc\L	.	2.ryy	.	4.a\	ſu-	2.ryy	2.ryy
8E-\	.	.	8f/	.	8cc\	.	.	.	.	.	.	.
8E-\	x 2	.	8f/	.	8cc\	.	.	.	.	.	.	.
8E-\	.	.	8f/	.	8cc\	.	.	.	8a\	-sci-	.	.
8E-\	.	.	8f/	.	8cc\	.	.	.	4a\	-pe	.	.
8E-\J	.	.	8f/J	.	8cc\J	.	.	.	.	.	.	.
=77	=77	=77	=77	=77	=77	=77	=77	=77	=77	=77	=77	=77
4D\	.	.	4f/	.	8ff\L	.	2.ryy	.	8b-\	de-	2.ryy	2.ryy
.	.	.	.	.	8a\	.	.	.	8cc\	-pre-	.	.
4r	.	.	4r	.	8b-X\	.	.	.	8dd\	-[ca]-	.	.
!	!	!	!	!	!	!	!	!	!LO:LB:g=original	!	!	!
.	.	.	.	.	8cc\	.	.	.	8ee-\	-ti-	.	.
4r	.	.	4r	.	8dd\	.	.	.	8ff\	-o-	.	.
.	.	.	.	.	8ee-\J	.	.	.	8gg\	-nem	.	.
=78	=78	=78	=78	=78	=78	=78	=78	=78	=78	=78	=78	=78
8B-\L	.	.	8dd\L	.	8ff\L	.	2.ryy	.	(4ff\	no-	2.ryy	2.ryy
8B-\	.	.	8dd\	.	8ff\	.	.	.	.	.	.	.
8E-\	.	.	8cc\	.	8ee-\	.	.	.	4ee-\)	.	.	.
8E-\	.	.	8cc\	.	8ee-\	.	.	.	.	.	.	.
8En\	.	.	8b-\	.	8dd\	.	.	.	4dd\	-stram	.	.
8E\J	.	.	8b-\J	.	8dd\J	.	.	.	.	.	.	.
=79	=79	=79	=79	=79	=79	=79	=79	=79	=79	=79	=79	=79
.	.	.	8qqcc/	.	.	.	.	.	8qqee-/	.	.	.
4F\	.	.	4b-\	.	4dd\	.	2.ryy	.	8.dd\	ſu-	2.ryy	2.ryy
.	.	.	.	.	.	.	.	.	16cc\	-sci-	.	.
4FF/	.	.	8a\L	.	8cc\L	.	.	.	4cc\	-pe	.	.
.	.	.	8cc\J	.	8ff\J	.	.	.	.	.	.	.
4r	.	.	8a\L	.	8cc\L	.	.	.	4r	.	.	.
.	.	.	16b-\L	.	16dd\L	.	.	.	.	.	.	.
.	.	.	16g\JJ	.	16b-\JJ	.	.	.	.	.	.	.
=80	=80	=80	=80	=80	=80	=80	=80	=80	=80	=80	=80	=80
*	*	*	*	*	*	*	*	*	*	*ij	*	*
!	!	!	!	!	!LO:TX:t=P:problem=kolejność znaków ee- b-	!	!	!	!	!	!	!
!	!	!	!	!	!LO:LB:g=original	!	!	!	!	!	!	!
8r	.	.	16f/LL	.	16a\LL	.	2.ryy	.	8.ff\	ſu-	2.ryy	2.ryy
.	.	.	16g/J	.	16b-\J	.	.	.	.	.	.	.
8F\	.	.	8a/J	.	8cc\J	.	.	.	.	.	.	.
.	.	.	.	.	.	.	.	.	16f/	-sci-	.	.
4FF/	.	.	8r	.	8r	.	.	.	4f/	-pe	.	.
*	*	*	*	*	*	*	*	*	*	*Xij	*	*
.	.	.	8cc\	.	8gg\	.	.	.	.	.	.	.
4r	.	.	16a\LL	.	16cc\LL	.	.	.	4r	.	.	.
.	.	.	16b-\J	.	16dd\J	.	.	.	.	.	.	.
.	.	.	8g\J	.	8b-\J	.	.	.	.	.	.	.
=81	=81	=81	=81	=81	=81	=81	=81	=81	=81	=81	=81	=81
8G\L	.	.	8b-\L	.	8ee-\L	.	2.ryy	.	4.ee-\	de-	2.ryy	2.ryy
8G\	.	.	8b-\	.	8ee-\	.	.	.	.	.	.	.
8G\	.	.	8b-\	.	8ee-\	.	.	.	.	.	.	.
8G\	.	.	8b-\	.	8ee-\	.	.	.	16ff\LL	-pre-	.	.
.	.	.	.	.	.	.	.	.	16gg\JJ	-ca-	.	.
8A\	.	.	8cc\	.	8ee-\	.	.	.	8ff\	-ti-	.	.
8A\J	.	.	8cc\J	.	8ee-\J	.	.	.	8ee-\	-o-	.	.
=82	=82	=82	=82	=82	=82	=82	=82	=82	=82	=82	=82	=82
8B-\L	.	.	8b-\L	.	8dd\L	.	2.ryy	.	8dd\	-nem	2.ryy	2.ryy
8B-\	.	.	8b-\	.	16cc\L	.	.	.	16cc\LL	.	.	.
.	.	.	.	.	16b-\JJ	.	.	.	16b-\JJ	.	.	.
!	!	!	!	!	!LO:TX:t=P:problem=trillo pod łukiem	!	!	!	!	!	!	!
!	!	!	!	!	!LO:TX:a:B:t=t	!	!	!	!	!	!	!
8F\	.	.	8b-\	.	2cc\	.	.	.	2cc\	no-	.	.
8F\J	.	.	8b-\	.	.	.	.	.	.	.	.	.
!LO:LB:g=original	!	!	!	!	!	!	!	!	!	!	!	!
8FF/L	.	.	8a\	.	.	.	.	.	.	.	.	.
8FF/J	.	.	8a\J	.	.	.	.	.	.	.	.	.
=83	=83	=83	=83	=83	=83	=83	=83	=83	=83	=83	=83	=83
!	!	!LO:DY:a:t=for	!	!	!	!	!	!	!	!	!	!
4BB-/	.	f	4f/	.	8b-\	.	2.ryy	.	4b-\	-stram	2.ryy	2.ryy
.	.	.	.	.	4dd\	.	.	.	.	.	.	.
4BB-/	.	.	4dd\	.	.	.	.	.	4r	.	.	.
.	.	.	.	.	4ff\	.	.	.	.	.	.	.
4BB-/	.	.	4dd\	.	.	.	.	.	4r	.	.	.
.	.	.	.	.	16bb-\LL	.	.	.	.	.	.	.
.	.	.	.	.	16ddd\JJ	.	.	.	.	.	.	.
=84	=84	=84	=84	=84	=84	=84	=84	=84	=84	=84	=84	=84
!	!	!	!	!	!	!	!	!	!LO:TX:a:t=4	!	!	!
4AA/	.	.	4cc\	.	16ccc\LL	.	2.ryy	.	0.r	.	2.ryy	2.ryy
.	.	.	.	.	16bb-\	.	.	.	.	.	.	.
.	.	.	.	.	16aa\	.	.	.	.	.	.	.
.	.	.	.	.	16gg\JJ	.	.	.	.	.	.	.
!	!	!	!	!LO:DY:t=fort:b	!LO:TX:t=P:problem=mixed beam	!	!	!	!	!	!	!
4AA/	.	.	4cc\	f	8ff\L	.	.	.	.	.	.	.
.	.	.	.	.	8f/J	.	.	.	.	.	.	.
.	.	.	.	.	8qff/	.	.	.	.	.	.	.
4AA/	.	.	4cc\	.	8ee-\L	.	.	.	.	.	.	.
.	.	.	.	.	16dd\L	.	.	.	.	.	.	.
.	.	.	.	.	16cc\JJ	.	.	.	.	.	.	.
=85	=85	=85	=85	=85	=85	=85	=85	=85	=85	=85	=85	=85
4BB-/	.	.	4dd\	.	4dd\	.	2.ryy	.	.	.	2.ryy	2.ryy
4BB-/	.	.	8b-\L|	.	8b-\L	.	.	.	.	.	.	.
.	.	.	16b-\L	.	16b-\L	.	.	.	.	.	.	.
.	.	.	16cc\JJ	.	16cc\JJ	.	.	.	.	.	.	.
4r	.	.	16dd\LL	.	16dd\LL|	.	.	.	.	.	.	.
.	.	.	16dd\	.	(16dd\	.	.	.	.	.	.	.
.	.	.	16ee-\	.	16ee-\	.	.	.	.	.	.	.
.	.	.	16ff\JJ	.	16ff\JJ)	.	.	.	.	.	.	.
=86	=86	=86	=86	=86	=86	=86	=86	=86	=86	=86	=86	=86
!	!	!	!LO:LB:g=original	!	!	!	!	!	!	!	!	!
.	.	.	(16qqee-/LL	.	(16qqee-/LL	.	.	.	.	.	.	.
.	.	.	16qqff/JJ)	.	16qqff/JJ)	.	.	.	.	.	.	.
4E-\	.	.	4gg\	.	4gg\	.	2.ryy	.	.	.	2.ryy	2.ryy
!	!	!	!	!	!LO:TX:t=P:problem=mixed beam	!	!	!	!	!	!	!
8D\L	.	.	8ff\L	.	8ff\L	.	.	.	.	.	.	.
8C\	.	.	8a\	.	8a/	.	.	.	.	.	.	.
8D\	.	.	8b-\	.	8b-/	.	.	.	.	.	.	.
8AA\J	.	.	8cc\J	.	8cc/J	.	.	.	.	.	.	.
=87	=87	=87	=87	=87	=87	=87	=87	=87	=87	=87	=87	=87
!LO:TX:t=P:problem=mixed beam	!	!	!	!	!	!	!	!	!	!	!	!
8BB-/L	.	.	24dd\LL	.	24dd\LL	.	2.ryy	.	.	.	2.ryy	2.ryy
.	.	.	24cc\	.	24cc\	.	.	.	.	.	.	.
.	.	.	24b-\JJ	.	24b-\JJ	.	.	.	.	.	.	.
8G\J	.	.	24ee-\LL	.	24ee-\LL	.	.	.	.	.	.	.
.	.	.	24dd\	.	24dd\	.	.	.	.	.	.	.
.	.	.	24cc\JJ	.	24cc\JJ	.	.	.	.	.	.	.
!	!	!LO:DY:b:t=pia	!	!	!	!	!	!	!	!	!	!
4E-X\	.	p	2cc\	.	2cc\T	.	.	.	.	.	.	.
4F\	.	.	.	.	.	.	.	.	.	.	.	.
=88	=88	=88	=88	=88	=88	=88	=88	=88	=88	=88	=88	=88
4BB-/	.	.	4b-\	.	4b-\	p	2.ryy	.	8r	.	2.ryy	2.ryy
.	.	.	.	.	.	.	.	.	8ff\	Qui	.	.
4D/	.	.	4r	.	4r	.	.	.	(16ff\LL	ſe-	.	.
.	.	.	.	.	.	.	.	.	16ee-\	.	.	.
.	.	.	.	.	.	.	.	.	16dd\	.	.	.
.	.	.	.	.	.	.	.	.	16cc\JJ)	.	.	.
4BB-/	.	.	4dd\	.	4ff\	.	.	.	8b-\	-des	.	.
.	.	.	.	.	.	.	.	.	8dd\	qui	.	.
=89	=89	=89	=89	=89	=89	=89	=89	=89	=89	=89	=89	=89
!	!	!	!	!	!LO:TX:t=P:problem=mixed beam	!	!	!	!	!	!	!
.	.	.	.	.	.	.	.	.	8qqdd/	.	.	.
!	!	!	!	!LO:DY:b:t=pia	!	!	!	!	!	!	!	!
8E-/L	.	.	8cc\L	p	8gg\L	.	2.ryy	.	4cc\	ſe-	2.ryy	2.ryy
8E-/	.	.	8cc\J	.	8gg\	.	.	.	.	.	.	.
8D/	.	.	8f/L	.	8ff\	.	.	.	(8b-\L	-des	.	.
8C/	.	.	8e-/	.	8a/J	.	.	.	8a\J)	.	.	.
8D/	.	.	8f/	.	8b-/L	.	.	.	4b-\	ad	.	.
8BB-/J	.	.	8d/J	.	8b-/J	.	.	.	.	.	.	.
=90	=90	=90	=90	=90	=90	=90	=90	=90	=90	=90	=90	=90
!	!	!	!	!	!LO:LB:g=original	!	!	!	!LO:LB:g=original	!	!	!
.	.	.	.	.	.	.	.	.	16qqee-/LL	.	.	.
!	!	!	!LO:TX:t=P:problem=mixed beam	!	!	!	!	!	!	!	!	!
.	.	.	.	.	.	.	.	.	16qqff/JJ	.	.	.
8AA/L	.	.	8c/L	.	8ee-\L	.	2.ryy	.	4gg\	dex-	2.ryy	2.ryy
8AA/	.	.	8cc\J	.	8ee-\	.	.	.	.	.	.	.
!	!	!	!	!	!	!	!	!	!LO:SIC:v:l:s=-teram	!	!	!
8AA/	.	.	8a/L	.	8cc\	.	.	.	8ff\L	-tram	.	.
8FF/	.	.	8f/	.	8a\J	.	.	.	8a\J	.	.	.
8GG/	.	.	8f/	.	8b-\L	.	.	.	8b-\	.	.	.
8AA/J	.	.	8f/J	.	8cc\J	.	.	.	8cc\	.	.	.
=91	=91	=91	=91	=91	=91	=91	=91	=91	=91	=91	=91	=91
!LO:TX:t=P:problem=mixed beam	!	!	!	!	!	!	!	!	!	!	!	!
.	.	.	.	.	.	.	.	.	8qqee-/	.	.	.
8BB-/L	.	.	8f/L	.	8dd\L	.	2.ryy	.	4dd\	Pa-	2.ryy	2.ryy
8BB-/	.	.	8f/	.	8dd\	.	.	.	.	.	.	.
8Fn\	.	.	8a/	.	8cc\	.	.	.	4cc\	-tris	.	.
8F\J	.	.	8a/	.	8cc\	.	.	.	.	.	.	.
8E-\L	.	.	8a/	.	8cc\	.	.	.	4r	.	.	.
8E-\J	.	.	8a/J	.	8cc\J	.	.	.	.	.	.	.
=92	=92	=92	=92	=92	=92	=92	=92	=92	=92	=92	=92	=92
8D/L	x 6	.	8f/L	.	4b-/	.	2.ryy	.	(4b-\	Mi-	2.ryy	2.ryy
8D/	.	.	8f/	.	.	.	.	.	.	.	.	.
8C/	x 6	.	8e-/	.	4a/	.	.	.	4a\)	.	.	.
8C/	.	.	8e-/	.	.	.	.	.	.	.	.	.
*	*below	*	*	*	*	*	*	*	*	*	*	*
8D/	x #	.	8f/	.	4a-X/	.	.	.	4a-X\	-se	.	.
*	*above	*	*	*	*	*	*	*	*	*	*	*
8D/J	.	.	8f/J	.	.	.	.	.	.	.	.	.
=93	=93	=93	=93	=93	=93	=93	=93	=93	=93	=93	=93	=93
!	!	!	!	!	!LO:SIC:v:s=4a-/	!	!	!	!	!	!	!
.	.	.	.	.	.	.	.	.	8qb-/	.	.	.
!	!	!	!	!	!	!	!	!	!LO:SIC:v:s=4a-\	!	!	!
2E-\	x 4	.	2B-/	.	4a/	.	2.ryy	.	4a\	Mi-	2.ryy	2.ryy
.	x 3	.	.	.	(8g/L	.	.	.	(8g\L	-ſe-	.	.
.	.	.	.	.	8f#X/J)	.	.	.	8f#X\J)	.	.	.
4r	.	.	4r	.	4g/	.	.	.	4g\	.	.	.
=94	=94	=94	=94	=94	=94	=94	=94	=94	=94	=94	=94	=94
!LO:N:vis=16	!	!	!	!	!	!	!	!	!	!	!	!
8En\L	x 6	.	8g/L	.	4cc\	.	2.ryy	.	(4cc\	-re-	2.ryy	2.ryy
!LO:N:vis=16	!	!	!	!	!	!	!	!	!	!	!	!
8E\	.	.	8g/	.	.	.	.	.	.	.	.	.
!LO:N:vis=16	!	!	!	!	!	!	!	!	!	!	!	!
8D\	x 6\	.	8f/	.	4bn\	.	.	.	4bn\)	-re	.	.
!LO:N:vis=16	!	!	!	!	!	!	!	!	!	!	!	!
8D\	.	.	8f/	.	.	.	.	.	.	.	.	.
*	*	*	*	*	*	*	*	*	*	*ij	*	*
!LO:N:vis=16	!	!	!	!	!	!	!	!	!	!	!	!
8E\	x 6	.	8g/	.	4b-X\	.	.	.	4b-X\	Mi-	.	.
!LO:N:vis=16	!	!	!	!	!	!	!	!	!	!	!	!
8E\J	x 5	.	8g/J	.	.	.	.	.	.	.	.	.
=95	=95	=95	=95	=95	=95	=95	=95	=95	=95	=95	=95	=95
2F\	.	.	2c/	.	4b-\	.	2.ryy	.	4b-\	-se-	2.ryy	2.ryy
.	.	.	.	.	(8an/L	.	.	.	8a\L	-re-	.	.
.	.	.	.	.	8g/J)	.	.	.	8gn\J	.	.	.
4r	.	.	4r	.	4a/	.	.	.	4a\	-re	.	.
*	*	*	*	*	*	*	*	*	*	*Xij	*	*
=96	=96	=96	=96	=96	=96	=96	=96	=96	=96	=96	=96	=96
8F#X\L	x 6	.	8a/L	.	(4dd\	.	2.ryy	.	(4dd\	mi-	2.ryy	2.ryy
8F#\	x 6\	.	8a/	.	.	.	.	.	.	.	.	.
!LO:SIC:v:s=8En\	!	!	!	!	!	!	!	!	!	!	!	!
8E-\	.	.	8g/	.	4cc#X\	.	.	.	4cc#X\)	.	.	.
!LO:SIC:v:s=8En\	!	!	!	!	!	!	!	!	!	!	!	!
8E-\	x n	.	8g/	.	.	.	.	.	.	.	.	.
8F#\	x 5	.	8a/	.	4ccn\)	.	.	.	4ccn\	-ſe-	.	.
8F#\J	.	.	8a/J	.	.	.	.	.	.	.	.	.
=97	=97	=97	=97	=97	=97	=97	=97	=97	=97	=97	=97	=97
.	.	.	.	.	.	.	.	.	8qqdd/	.	.	.
!	!	!	!LO:LB:g=original	!	!	!	!	!	!	!	!	!
2G\	.	.	2d/	.	4cc\	.	2.ryy	.	4cc\	-re-	2.ryy	2.ryy
.	.	.	.	.	(8b-\L	.	.	.	(8b-\L	.	.	.
.	.	.	.	.	8a\J)	.	.	.	8a\J)	.	.	.
4r	.	.	4r	.	4b-\	.	.	.	4b-\	-re	.	.
=98	=98	=98	=98	=98	=98	=98	=98	=98	=98	=98	=98	=98
!LO:LB:g=original	!	!	!	!	!	!	!	!	!	!	!	!
8G\L	x 6	.	8b-/L	.	(4ee-\	.	2.ryy	.	(4ee-X\	mi-	2.ryy	2.ryy
8G\	x 5	.	8b-/	.	.	.	.	.	.	.	.	.
8G\	.	.	8b-/	.	4dd\	.	.	.	4dd\)	.	.	.
8G\	x 5	.	8b-/	.	.	.	.	.	.	.	.	.
8G\	2 6	.	8b-/	.	4cc#X\)	.	.	.	4cc#X\	-ſe-	.	.
8G\J	4 2	.	8b-/J	.	.	.	.	.	.	.	.	.
=99	=99	=99	=99	=99	=99	=99	=99	=99	=99	=99	=99	=99
8F#X\L	x 6	.	8a/L	.	4.dd\	.	2.ryy	.	4.dd\	-re-	2.ryy	2.ryy
8F#\	.	.	8a/	.	.	.	.	.	.	.	.	.
8F#\	.	.	8a/	.	.	.	.	.	.	.	.	.
!	!	!	!	!	!	!	!	!	!LO:SIC:v:s=8f#/L	!	!	!
8F#\	.	.	8d/	.	8f#X/L	.	.	.	8f/L	.	.	.
!	!	!	!LO:SIC:v:s=8en/	!	!	!	!	!	!	!	!	!
8D\	.	.	8e-/	.	8g/	.	.	.	8g/	-re	.	.
8D\J	.	.	8f#X/J	.	8a/J	.	.	.	8a/J	.	.	.
=100	=100	=100	=100	=100	=100	=100	=100	=100	=100	=100	=100	=100
*	*	*	*	*	*	*	*	*	*	*ij	*	*
!LO:TX:t=P:problem=mixed beam	!	!	!	!	!	!	!	!	!LO:LB:g=original	!	!	!
8G\L	.	.	4g/	.	4b-/	.	2.ryy	.	4b-\	mise-	2.ryy	2.ryy
8G\	.	.	.	.	.	.	.	.	.	.	.	.
.	.	.	.	.	(16qqa\LL	.	.	.	(16qqa/LL	.	.	.
.	.	.	.	.	16qqb-\JJ)	.	.	.	16qqb-/JJ)	.	.	.
8C/	.	.	4a/	.	4cc/	.	.	.	4cc\	-re-	.	.
8C/J	.	.	.	.	.	.	.	.	.	.	.	.
8C#X/L	x 6	.	4g/	.	4b-/	.	.	.	4b-\	-re	.	.
8C#/J	x 2	.	.	.	.	.	.	.	.	.	.	.
*	*	*	*	*	*	*	*	*	*	*Xij	*	*
=101	=101	=101	=101	=101	=101	=101	=101	=101	=101	=101	=101	=101
.	.	.	.	.	.	.	.	.	8qqcc/	.	.	.
4D/	.	.	4g/	.	4b-/	.	2.ryy	.	4b-\	no-	2.ryy	2.ryy
4DD/	.	.	4f#X/	.	8a/L	.	.	.	4a\	-bis	.	.
.	.	.	.	.	8dd/J	.	.	.	.	.	.	.
4r	.	.	8f#/L	.	8a/L	.	.	.	4r	.	.	.
.	.	.	16g/L	.	16b-/L	.	.	.	.	.	.	.
.	.	.	16en/JJ	.	16g/JJ	.	.	.	.	.	.	.
=102	=102	=102	=102	=102	=102	=102	=102	=102	=102	=102	=102	=102
8r	.	.	16d/LL	.	16f#X/LL	.	2.ryy	.	4r	.	2.ryy	2.ryy
.	.	.	16en/J	.	16g/J	.	.	.	.	.	.	.
*	*	*	*	*	*custos:b	*	*	*	*	*	*	*
!	!	!	!LO:SIC:v:s=8f#/J	!	!	!	!	!	!	!	!	!
8D/	.	.	8f/J	.	8a/J	.	.	.	.	.	.	.
!	!	!	!	!	!LO:LB:g=original	!	!	!	!	!	!	!
4DD/	.	.	8r	.	8r	.	.	.	4dd\	Mi-	.	.
.	.	.	8f#X/	.	8dd\	.	.	.	.	.	.	.
4r	.	.	16f#/LL	.	8a/L	.	.	.	4dd\	-ſe-	.	.
.	.	.	16g/J	.	.	.	.	.	.	.	.	.
.	.	.	8en/J	.	16b-/L	.	.	.	.	.	.	.
.	.	.	.	.	16g/JJ	.	.	.	.	.	.	.
=103	=103	=103	=103	=103	=103	=103	=103	=103	=103	=103	=103	=103
2.r	.	.	(16d/LL	.	(16f#X/LL	.	2.ryy	.	2dd\	-re-	2.ryy	2.ryy
.	.	.	16en/	.	16g/	.	.	.	.	.	.	.
.	.	.	16e/	.	16g/	.	.	.	.	.	.	.
!	!	!	!LO:SIC:v:s=16f#/JJ)	!	!	!	!	!	!	!	!	!
.	.	.	16f/JJ)	.	16a/JJ)	.	.	.	.	.	.	.
!	!	!	!LO:SIC:v:s=(16f#/LL	!	!	!	!	!	!	!	!	!
.	.	.	(16f/LL	.	(16a/LL	.	.	.	.	.	.	.
.	.	.	16g/	.	16b-/	.	.	.	.	.	.	.
.	.	.	16g/	.	16b-/	.	.	.	.	.	.	.
.	.	.	16a/JJ)	.	16cc/JJ)	.	.	.	.	.	.	.
.	.	.	(16a/LL	.	(16cc\LL	.	.	.	4dd\	-re	.	.
.	.	.	16b-/	.	16dd\	.	.	.	.	.	.	.
.	.	.	16b-/	.	16dd\	.	.	.	.	.	.	.
.	.	.	16cc/JJ)	.	16ee-\JJ)	.	.	.	.	.	.	.
=104	=104	=104	=104	=104	=104	=104	=104	=104	=104	=104	=104	=104
.	.	.	.	.	.	.	.	.	16qqcc/LL	.	.	.
.	.	.	.	.	.	.	.	.	16qqdd/JJ	.	.	.
4c\	x 6	.	8r	.	8r	.	2.ryy	.	2ee-X\	mi-	2.ryy	2.ryy
.	x 3	.	8cc\L	.	8ee-\L	.	.	.	.	.	.	.
4A\	.	.	8r	.	8r	.	.	.	.	.	.	.
.	.	.	8cc\J	.	8ee-\J	.	.	.	.	.	.	.
!LO:N:acc=-	!	!	!	!	!	!	!	!	!	!	!	!
4F#X\	.	.	8r	.	8r	.	.	.	4dd\	-ſe-	.	.
.	.	.	8cc\	.	8ee-\	.	.	.	.	.	.	.
=105	=105	=105	=105	=105	=105	=105	=105	=105	=105	=105	=105	=105
4G\	.	.	8b-\L	.	16dd\LL	.	2.ryy	.	8dd\	-re-	2.ryy	2.ryy
.	.	.	.	.	16b-\	.	.	.	.	.	.	.
.	.	.	16a\L	.	16a\	.	.	.	16cc\LL	-re	.	.
.	.	.	16g\JJ	.	16g\JJ	.	.	.	16b-\JJ	.	.	.
.	.	.	.	.	.	.	.	.	8qqb-/	.	.	.
4D\	.	.	4d/	.	4d/	.	.	.	2a\	no-	.	.
4DD/	.	.	4f#X/	.	4a/	.	.	.	.	.	.	.
=106	=106	=106	=106	=106	=106	=106	=106	=106	=106	=106	=106	=106
!LO:TX:t=P:problem=mixed beam	!	!	!LO:TX:b:t=g	!	!LO:TX:t=P:problem=mixed beam	!	!	!	!	!	!	!
8GG/L	.	.	8g/L	.	8g/L	.	2.ryy	.	4b-\	-bis	2.ryy	2.ryy
8c\J	.	.	8cc/J	.	8ee-\J	.	.	.	.	.	.	.
4A\	.	.	8r	.	8r	.	.	.	4ee-\	mi-	.	.
.	.	.	8cc\	.	8ee-\	.	.	.	.	.	.	.
4F#X\	.	.	8r	.	8r	.	.	.	4ee-\	-ſe-	.	.
.	.	.	8cc\	.	8ee-\	.	.	.	.	.	.	.
=107	=107	=107	=107	=107	=107	=107	=107	=107	=107	=107	=107	=107
!	!	!	!LO:LB:g=original	!	!	!	!	!	!	!	!	!
2G\	.	.	4b-\	.	4dd\	.	2.ryy	.	4dd\	-re-	2.ryy	2.ryy
.	.	.	4r	.	4r	.	.	.	(8cc\L	.	.	.
.	.	.	.	.	.	.	.	.	8b-\J)	.	.	.
4r	.	.	4r	.	4r	.	.	.	(8a\L	-re	.	.
.	.	.	.	.	.	.	.	.	8g\J)	.	.	.
=108	=108	=108	=108	=108	=108	=108	=108	=108	=108	=108	=108	=108
!LO:TX:a:t=Da Capo\nad Finis	!	!	!	!	!LO:TX:a:t=Da Capo ad ſignum ##	!	!	!	!	!	!	!
!	!	!	!LO:TX:a:t=Da Capo ad Finis	!	!LO:TX:a:t=1	!	!	!	!	!	!	!
2.D;;/	.	.	2.r	.	2.r	.	2.ryy	.	4g\	no-	2.ryy	2.ryy
.	.	.	.	.	.	.	.	.	2a\t	.	.	.
=109	=109	=109	=109	=109	=109	=109	=109	=109	=109	=109	=109	=109
4G\yy	x 6	.	4b-/yy	.	8g/yy	.	2.ryy	.	4g/	-bis	2.ryy	2.ryy
.	.	.	.	.	4b-/yy	.	.	.	.	.	.	.
4G\yy	.	.	4b-/yy	.	.	.	.	.	4r	.	.	.
.	.	.	.	.	4dd\yy	.	.	.	.	.	.	.
4G\yy	.	.	4b-/yy	.	.	.	.	.	4r	.	.	.
.	.	.	.	.	16gg\LLyy	.	.	.	.	.	.	.
.	.	.	.	.	16bb-X\JJyy	.	.	.	.	.	.	.
=110	=110	=110	=110	=110	=110	=110	=110	=110	=110	=110	=110	=110
4F#X\yy	.	.	4a/yy	.	16aa\LLyy	.	2.ryy	.	0.r	.	2.ryy	2.ryy
.	.	.	.	.	16gg\yy	.	.	.	.	.	.	.
.	.	.	.	.	16ff#X\yy	.	.	.	.	.	.	.
.	.	.	.	.	16ee-X\JJyy	.	.	.	.	.	.	.
4F#\yy	.	.	4a/yy	.	8dd\Lyy	.	.	.	.	.	.	.
.	.	.	.	.	8d/Jyy	.	.	.	.	.	.	.
.	.	.	.	.	8qqdd/yy	.	.	.	.	.	.	.
4F#\yy	.	.	4a/yy	.	8cc\Lyy	.	.	.	.	.	.	.
.	.	.	.	.	16b-\Lyy	.	.	.	.	.	.	.
.	.	.	.	.	16a\JJyy	.	.	.	.	.	.	.
=111	=111	=111	=111	=111	=111	=111	=111	=111	=111	=111	=111	=111
4G\yy	.	.	4b-/yy	.	4b-/yy	.	2.ryy	.	.	.	2.ryy	2.ryy
4GG/yy	.	.	8g/Lyy	.	8g/Lyy	.	.	.	.	.	.	.
.	.	.	16g/Lyy	.	16g/Lyy	.	.	.	.	.	.	.
.	.	.	16a/JJyy	.	16a/JJyy	.	.	.	.	.	.	.
4ryy	.	.	16b-\LLyy	.	(16b-\LLyy	.	.	.	.	.	.	.
!	!	!	!	!	!LO:SIC:v:s=16b-\	!	!	!	!	!	!	!
.	.	.	16b-\yy	.	16cc\yy	.	.	.	.	.	.	.
.	.	.	16cc\yy	.	16cc\yy	.	.	.	.	.	.	.
.	.	.	16dd\JJyy	.	16dd\JJ)yy	.	.	.	.	.	.	.
=112	=112	=112	=112	=112	=112	=112	=112	=112	=112	=112	=112	=112
.	.	.	16qqcc/LLyy	.	16qqcc/LLyy	.	.	.	.	.	.	.
.	.	.	16qqdd/JJyy	.	16qqdd/JJyy	.	.	.	.	.	.	.
4F#X\yy	x 6	.	4ee-\yy	.	4ee-\yy	.	2.ryy	.	.	.	2.ryy	2.ryy
.	x 2	.	.	.	.	.	.	.	.	.	.	.
8G\Lyy	x 6	.	8dd\Lyy	.	8dd\Lyy	.	.	.	.	.	.	.
8A\yy	.	.	8d/yy	.	8f#X/yy	.	.	.	.	.	.	.
!	!	!	!LO:SIC:v:s=8en/	!	!	!	!	!	!	!	!	!
8B-\yy	.	.	8e-/yy	.	8g/yy	.	.	.	.	.	.	.
!	!	!	!LO:SIC:v:s=8f#/J	!	!	!	!	!	!	!	!	!
8c\Jyy	.	.	8f/Jyy	.	8a/Jyy	.	.	.	.	.	.	.
=113	=113	=113	=113	=113	=113	=113	=113	=113	=113	=113	=113	=113
4d\yy	.	.	8g/Lyy	.	8b-\Lyy	.	2.ryy	.	.	.	2.ryy	2.ryy
.	.	.	8f#X/Jyy	.	8a\Jyy	.	.	.	.	.	.	.
4DD/yy	.	.	8ryy	.	8ryy	.	.	.	.	.	.	.
.	.	.	8f#/yy	.	8dd\yy	.	.	.	.	.	.	.
4ryy	.	.	8f#/Lyy	.	8a/Lyy	.	.	.	.	.	.	.
.	.	.	16g/Lyy	.	(16b-/Lyy	.	.	.	.	.	.	.
.	.	.	16en/JJyy	.	16g/JJ)yy	.	.	.	.	.	.	.
=114	=114	=114	=114	=114	=114	=114	=114	=114	=114	=114	=114	=114
8ryy	.	.	16d/LLyy	.	16f#X/LLyy	.	2.ryy	.	0.r	.	2.ryy	2.ryy
.	.	.	16en/Jyy	.	16g/Jyy	.	.	.	.	.	.	.
8D\yy	.	.	8f#X/Jyy	.	8a/Jyy	.	.	.	.	.	.	.
4DD/yy	.	.	8ryy	.	8ryy	.	.	.	.	.	.	.
.	.	.	8f#/yy	.	8dd\yy	.	.	.	.	.	.	.
4ryy	.	.	8f#/Lyy	.	8a/Lyy	.	.	.	.	.	.	.
.	.	.	16g/Lyy	.	(16b-/Lyy	.	.	.	.	.	.	.
.	.	.	16en/JJyy	.	16g/JJ)yy	.	.	.	.	.	.	.
=115	=115	=115	=115	=115	=115	=115	=115	=115	=115	=115	=115	=115
2D/yy	.	.	16d/LLyy	.	(16f#X/LLyy	.	2.ryy	.	.	.	2.ryy	2.ryy
.	.	.	16en/yy	.	16g/yy	.	.	.	.	.	.	.
.	.	.	16e/yy	.	16g/yy	.	.	.	.	.	.	.
!	!	!	!LO:SIC:v:s=16f#/JJ	!	!	!	!	!	!	!	!	!
.	.	.	16f/JJyy	.	16a/JJ)yy	.	.	.	.	.	.	.
!	!	!	!LO:SIC:v:s=16f#/LL	!	!	!	!	!	!	!	!	!
.	.	.	(16f/LLyy	.	(16a/LLyy	.	.	.	.	.	.	.
.	.	.	16g/yy	.	16b-/yy	.	.	.	.	.	.	.
.	.	.	16g/yy	.	16b-/yy	.	.	.	.	.	.	.
.	.	.	16a/JJ)yy	.	16cc/JJ)yy	.	.	.	.	.	.	.
4ryy	.	.	(16a/LLyy	.	(16cc\LLyy	.	.	.	.	.	.	.
.	.	.	16b-/yy	.	16dd\yy	.	.	.	.	.	.	.
.	.	.	16b-/yy	.	16dd\yy	.	.	.	.	.	.	.
.	.	.	16cc/JJ)yy	.	16ee-\JJ)yy	.	.	.	.	.	.	.
=116	=116	=116	=116	=116	=116	=116	=116	=116	=116	=116	=116	=116
4c\yy	.	.	8ryy	.	8ryy	.	2.ryy	.	.	.	2.ryy	2.ryy
.	.	.	8cc\Lyy	.	8ee-\Lyy	.	.	.	.	.	.	.
4A\yy	.	.	8ryy	.	8ryy	.	.	.	.	.	.	.
.	.	.	8cc\yy	.	8ee-\Jyy	.	.	.	.	.	.	.
4F#X\yy	.	.	8ryy	.	8ryy	.	.	.	.	.	.	.
.	.	.	16cc\Jkyy	.	8ee-\yy	.	.	.	.	.	.	.
.	.	.	16ryy	.	.	.	.	.	.	.	.	.
=117	=117	=117	=117	=117	=117	=117	=117	=117	=117	=117	=117	=117
8G\Lyy	.	.	8b-/Lyy	.	(16dd\LLyy	.	2.ryy	.	.	.	2.ryy	2.ryy
.	.	.	.	.	16b-\yy	.	.	.	.	.	.	.
8C\Jyy	.	.	16a/Lyy	.	16a\yy	.	.	.	.	.	.	.
.	.	.	16g/JJyy	.	16g\JJ)yy	.	.	.	.	.	.	.
4D\yy	x #	.	4d/yy	.	4d/yy	.	.	.	.	.	.	.
4DD/yy	.	.	4f#X/yy	.	4a/yy	.	.	.	.	.	.	.
=118	=118	=118	=118	=118	=118	=118	=118	=118	=118	=118	=118	=118
8GG/Lyy	.	.	8g/Lyy	.	8g/Lyy	.	2.ryy	.	1.r	.	2.ryy	2.ryy
!	!	!	!	!	!	!LO:DY:b:t=pia	!	!	!	!	!	!
8c\Jyy	.	.	8cc/Jyy	.	8ee-\Jyy	p	.	.	.	.	.	.
4A\yy	.	.	8ryy	.	8ryy	.	.	.	.	.	.	.
.	.	.	8cc\yy	.	8ee-\yy	.	.	.	.	.	.	.
4F#X\yy	.	.	8ryy	.	8ryy	.	.	.	.	.	.	.
.	.	.	8cc\yy	.	8ee-\yy	.	.	.	.	.	.	.
=119	=119	=119	=119	=119	=119	=119	=119	=119	=119	=119	=119	=119
8G\Lyy	.	.	16b-/LLyy	.	16dd/LLyy	.	2.ryy	.	.	.	2.ryy	2.ryy
.	.	.	16b-/yy	.	16b-/yy	.	.	.	.	.	.	.
8C\Jyy	.	.	16a/yy	.	16a/yy	.	.	.	.	.	.	.
.	.	.	16g/JJyy	.	16g/JJyy	.	.	.	.	.	.	.
4D\yy	.	.	4d/yy	.	4d/yy	.	.	.	.	.	.	.
4DD/yy	.	.	4f#X/yy	.	4a/yy	.	.	.	.	.	.	.
=120	=120	=120	=120	=120	=120	=120	=120	=120	=120	=120	=120	=120
2.GG;</yy	.	.	2.g;/yy	.	2.g;;/yy	.	2.ryy	.	2.r	.	2.ryy	2.ryy
*	*	*	*	*	*	*	*	*	*kcancel	*	*	*
=121||	=121||	=121||	=121||	=121||	=121||	=121||	=121||	=121||	=121||	=121||	=121||	=121||
*k[f#3f#]	*	*	*k[f#3f#]	*	*k[f#3f#]	*	*k[f#]	*	*k[f#]	*	*k[f#c#]	*k[f#c#]
*M3/4	*	*	*M3/4	*	*M3/4	*	*M3/4	*	*M3/4	*	*M3/4	*M3/4
!LO:TX:t=P:problem=przy kluczu FF# F#	!	!	!LO:TX:t=P:problem=przy kluczu f# ff#	!	!LO:LB:g=original	!	!LO:LB:g=original	!	!LO:LB:g=original	!	!	!
!LO:TX:a:t=tut	!	!	!LO:TX:b:t=Quoniam.	!	!LO:TX:t=P:problem=przy kluczu f# ff#	!	!LO:TX:t=P:problem=brak oznaczenia tempa	!	!LO:TX:t=P:problem=brak oznaczenia tempa	!	!	!
8G\L	.	.	8b/L	.	8g/	.	8.G\	Quo-	8.dd\	Quo-	4dd\	4bb\
8G\	.	.	8b/	.	4gg\	.	.	.	.	.	.	.
.	.	.	.	.	.	.	16G\	-ni-	16dd\	-ni-	.	.
8G\	.	.	8b/	.	.	.	8G\	-a(m)	8b\	-am	8r	8r
8G\J	.	.	8b/	.	16dd\LL	.	8G\	tu	8dd\	tu	8gg\L	8bb\L
.	.	.	.	.	16b\JJ	.	.	.	.	.	.	.
!LO:TX:t=P:problem=niepełny takt [prawdopodobnie 2x8G]	!	!	!	!	!	!	!	!	!	!	!	!
8ryy	.	.	8b/	.	8g/L	.	8G\	ſo-	8b\	ſo-	8gg\	8bb\
8ryy	.	.	8b/J	.	8g/J	.	8G\	-lus	8g\	-lus	8gg\J	8bb\J
=122	=122	=122	=122	=122	=122	=122	=122	=122	=122	=122	=122	=122
!	!	!	!	!	!LO:SIC:v:s=8f#	!	!	!	!	!	!	!
8F#\L	.	.	8a/L	.	8g/	.	4F#\	ſan-	4a\	ſan-	4ff#\	4aa\
8F#\	.	.	8a/	.	4dd\	.	.	.	.	.	.	.
8F#\	.	.	8a/	.	.	.	8F#\	-ct(us)	8d/	-ctus	8r	8r
8F#\	.	.	8a/	.	16a/LL	.	8F#\	tu	8dd\	tu	8ff#\L	8aa\L
.	.	.	.	.	16f#/JJ	.	.	.	.	.	.	.
8F#\	.	.	8a/	.	8d/L	.	8F#\	ſo-	8dd\	so-	8ff#\	8aa\
8F#\J	.	.	8a/J	.	8d/J	.	8F#\	-l(us)	8dd\	-l(us)	8ff#\J	8aa\J
=123	=123	=123	=123	=123	=123	=123	=123	=123	=123	=123	=123	=123
8E\L	.	.	8b\L	.	16g/LL	.	8.E\	Do-	8dd\	Do-	4ee\	4gg\
.	.	.	.	.	16g/	.	.	.	.	.	.	.
8E\	x 5	.	8b\	.	16g/	.	.	.	8dd\	-mi-	.	.
.	.	.	.	.	16g/JJ	.	16E\	-mi-	.	.	.	.
8E\	.	.	8cc#X\	.	16gg\LL	.	8E\	-n(us)	8dd\	-nus	8r	8r
.	.	.	.	.	16gg\	.	.	.	.	.	.	.
8E\	x 6\	.	8cc#\	.	16gg\	.	8E\	tu	8dd\	tu	8ee\L	8gg\L
.	.	.	.	.	16gg\JJ	.	.	.	.	.	.	.
!	!	!	!	!	!	!	!	!	!LO:N:vis=16	!	!	!
8E\	.	.	8cc#\	.	16gg\LL	.	8E\	ſo-	8dd\	so-	8ee\	8gg\
.	.	.	.	.	16gg\	.	.	.	.	.	.	.
!	!	!	!	!	!	!	!	!	!LO:N:vis=16	!	!	!
8E\J	.	.	8cc#\J	.	16gg\	.	16E\	-lus	8dd\	-lus	8ee\J	8gg\J
.	.	.	.	.	16gg\JJ	.	16E\	al-	.	.	.	.
=124	=124	=124	=124	=124	=124	=124	=124	=124	=124	=124	=124	=124
!LO:SIC:v:s=8.D\L	!	!	!	!	!	!	!	!	!	!	!	!
!LO:LB:g=original	!	!	!	!	!	!	!	!	!	!	!	!
8.BB\L	.	.	8a/L	.	16ff#\LL	.	8.D\	-tiſ-	8.ff#\	al-	8.dd\L	8.ff#\L
.	.	.	.	.	16ff#\	.	.	.	.	.	.	.
.	.	.	8a/	.	16ff#\	.	.	.	.	.	.	.
!LO:SIC:v:s=16D\Jk	!	!	!	!	!	!	!	!	!	!	!	!
16BB\Jk	.	.	.	.	16ff#\JJ	.	16D\	-si-	16ff#\	-tiſ-	16dd\K	16ff#\K
!LO:N:vis=4	!	!	!	!	!	!	!	!	!LO:N:vis=8.	!	!	!
8BB\	.	.	8a/	.	16ff#\LL	.	8D\	-mus	4ff#\	-si-	8dd\	8ff#\
.	.	.	.	.	16ff#\	.	.	.	.	.	.	.
4d\	.	.	8a/	.	16ff#\	.	4d\	Je-	.	.	8ff#\J	8aa\
.	.	.	.	.	16ff#\JJ	.	.	.	.	.	.	.
.	.	.	8a/	.	16ff#\LL	.	.	.	4ff#\	-mus	8ff#\L	8aa\
.	.	.	.	.	16ff#\	.	.	.	.	.	.	.
8c\	.	.	8a/J	.	16ff#\	.	8c\	-su	.	.	8ff#\J	8aa\J
.	.	.	.	.	16ff#\JJ	.	.	.	.	.	.	.
=125	=125	=125	=125	=125	=125	=125	=125	=125	=125	=125	=125	=125
8B\	.	.	8dd\	.	4gg\	.	8B\	Je-	8gg\	Je-	4gg\	4bb\
4B\	.	.	4dd\	.	.	.	4B\	.	4dd\	.	.	.
.	.	.	.	.	8g/	.	.	.	.	.	4r	4r
16A\LL	.	.	16cc\LL	.	4gg\	.	16A\LL	.	4gg\	.	.	.
16B\JJ	.	.	16dd\JJ	.	.	.	16B\JJ	.	.	.	.	.
!	!	!	!	!	!	!	!LO:TX:t=P:problem=rytm przyjęty zgodnie z tt. 119, 121	!	!	!	!	!
!	!	!	!	!	!	!	!LO:N:vis=16	!	!	!	!	!
8G\L	.	.	16b\LL	.	.	.	8F#\L	.	.	.	4r	4r
.	.	.	16cc\J	.	.	.	.	.	.	.	.	.
16A\L	.	.	8dd\J	.	8ff#\	.	16G\L	.	8ff#\	.	.	.
16B\JJ	.	.	.	.	.	.	16A\JJ	.	.	.	.	.
=126	=126	=126	=126	=126	=126	=126	=126	=126	=126	=126	=126	=126
!	!	!	!LO:TX:t=P:problem=brak taktów nr 126-127	!	!LO:SIC:v:s=8een\	!	!LO:LB:g=original	!	!	!	!	!
8c\	.	.	2.ryy	.	8ff#\	.	4c\	.	8ee\	.	8r	8r
!	!	!	!	!	!LO:SIC:v:s=4een\	!	!	!	!	!	!	!
4C/	.	.	.	.	4ff#\	.	.	.	4ee\	.	8ee\L	8gg\L
.	.	.	.	.	.	.	8C/	-ſu	.	.	8ee\	8gg\
4c\	.	.	.	.	16dd\LL	.	4c\	Je-	16dd\LL	.	8ee\	8gg\
.	.	.	.	.	16ee\JJ	.	.	.	16ee\JJ	.	.	.
.	.	.	.	.	8cc\L	.	.	.	8cc\L	.	8ee\	8gg\
8B\	.	.	.	.	16dd\L	.	8B\	.	16dd\L	.	8ee\J	8gg\J
.	.	.	.	.	16ee\JJ	.	.	.	16ee\JJ	.	.	.
=127	=127	=127	=127	=127	=127	=127	=127	=127	=127	=127	=127	=127
!	!	!	!	!	!	!	!LO:N:vis=4	!	!	!	!	!
8A\	.	.	2.ryy	.	4ff#\	.	8A\	.	4ff#\	.	4ff#\	4aa\
4A\	.	.	.	.	.	.	4A\	.	.	.	.	.
.	.	.	.	.	8f#/	.	.	.	8cc\	.	4r	4r
!LO:N:vis=8	!	!	!	!	!	!	!	!	!	!	!	!
16G\LL	.	.	.	.	4ff#\	.	16G\LL	.	4ff#\	.	.	.
!LO:N:vis=8	!	!	!	!	!	!	!	!	!	!	!	!
16A\JJ	.	.	.	.	.	.	16A\JJ	.	.	.	.	.
8F#\L	.	.	.	.	.	.	8F#\L	.	.	.	4r	4r
16G\L	.	.	.	.	8ee\	.	16G\L	.	8ee\	.	.	.
16A\JJ	.	.	.	.	.	.	16A\JJ	.	.	.	.	.
=128	=128	=128	=128	=128	=128	=128	=128	=128	=128	=128	=128	=128
!	!	!	!	!	!	!	!	!	!LO:LB:g=original	!	!LO:N:vis=8	!
8B\	.	.	8f#/L	.	8dd\	.	4B\	.	8dd\	.	4r	8r
4BB/	.	.	8f#/	.	4dd\	.	.	.	4dd\	.	.	8ff#\L
.	.	.	8f#/	.	.	.	8BB/	.	.	.	8dd\L	8ff#\
4B\	.	.	8f#/	.	16cc\LL	.	4B\	.	16cc\LL	.	8dd\	8ff#\
.	.	.	.	.	16dd\JJ	.	.	.	16dd\JJ	.	.	.
.	.	.	8f#/	.	8b\L	.	.	.	8b\L	.	8dd\	8ff#\
8A\	.	.	8f#/J	.	16cc\L	.	8A\	.	16cc\L	.	8dd\J	8ff#\J
.	.	.	.	.	16dd\JJ	.	.	.	16dd\JJ	.	.	.
=129	=129	=129	=129	=129	=129	=129	=129	=129	=129	=129	=129	=129
!	!	!	!LO:LB:g=original	!	!	!	!	!	!	!	!	!
8G\	.	.	8b/	.	4ee\	.	8G\	.	4ee\	.	4ee\	4gg\
4G\	.	.	4b/	.	.	.	4G\	.	.	.	.	.
.	.	.	.	.	8e/	.	.	.	8b\	.	4r	4r
16F#\LL	.	.	16a/LL	.	4ee\	.	16F#\LL	.	4ee\	.	.	.
16G\JJ	.	.	16b/JJ	.	.	.	16G\JJ	.	.	.	.	.
8E\L	.	.	16g/LL	.	.	.	8E\L	.	.	.	4r	4r
.	.	.	16a/J	.	.	.	.	.	.	.	.	.
16F#\L	.	.	8b/J	.	8dd\	.	16F#\L	.	8dd\	.	.	.
16G\JJ	.	.	.	.	.	.	16G\JJ	.	.	.	.	.
=130	=130	=130	=130	=130	=130	=130	=130	=130	=130	=130	=130	=130
!	!	!	!	!	!LO:LB:g=original	!	!	!	!	!	!LO:LB:g=original	!LO:LB:g=original
8A\	.	.	8e/L	.	8cc\	.	4A\	.	8cc\	.	8r	8r
4AA/	.	.	8e/	.	4cc\	.	.	.	4cc\	.	8a/L	8ee\L
.	.	.	8e/	.	.	.	8AA/	.	.	.	8a/	8ee\
4A\	.	.	8e/	.	16b\LL	.	4A\	.	16b\LL	.	8a/	8ee\
.	.	.	.	.	16cc\JJ	.	.	.	16cc\JJ	.	.	.
.	.	.	8e/	.	8a\L	.	.	.	8a\L	.	8a/	8ee\
8G\	.	.	8e/J	.	16b\L	.	8G\	.	16b\L	.	8a/J	8ee\J
.	.	.	.	.	16cc\JJ	.	.	.	16cc\JJ	.	.	.
=131	=131	=131	=131	=131	=131	=131	=131	=131	=131	=131	=131	=131
!	!	!	!LO:TX:t=P:problem=brak taktów nr 135-136	!	!	!	!	!	!	!	!	!
8F#\L	.	.	2.ryy	.	4dd\	.	8F#\L	.	4dd\	.	4dd\	4ff#\
8E\J	.	.	.	.	.	.	8E\J	.	.	.	.	.
!	!	!	!	!	!LO:TX:t=P:problem=mixed beam	!	!	!	!	!	!	!
8D\	.	.	.	.	8d/L	.	8D\	.	4d/	-ſu	8r	8r
4d\	.	.	.	.	8dd\	.	4d\	.	.	.	8ff#\L	8aa\L
.	.	.	.	.	8dd\	.	.	.	4ff#\	Je-	8ff#\	8aa\
8c\	.	.	.	.	8dd\J	.	8c\	.	.	.	8ff#\J	8aa\J
=132	=132	=132	=132	=132	=132	=132	=132	=132	=132	=132	=132	=132
8B\L	.	.	2.ryy	.	4dd\	.	8B\L	.	4gg\	.	4gg\	4bb\
8A\	.	.	.	.	.	.	8A\	.	.	.	.	.
8G\	.	.	.	.	8bb\L	.	8G\	.	4dd\	.	4r	4r
8F#\	.	.	.	.	8aa\	.	8F#\	.	.	.	.	.
8E\	.	.	.	.	8gg\	.	8E\	.	4b\	.	4r	4r
8D\J	.	.	.	.	8ff#\J	.	8D\J	.	.	.	.	.
=133	=133	=133	=133	=133	=133	=133	=133	=133	=133	=133	=133	=133
8C/L	.	.	8a/L	.	8ee\L	.	8C/	.	8ee\L	.	8r	8r
8AA/J	.	.	8g/	.	8cc\J	.	8AA/	-ſu	8cc\J	-ſu	8ee\	8aa\
4D\	.	.	8f#/	.	8a/L	.	2D/	Chri-	2a\	Chri-	4dd\	4gg\
.	.	.	8f#/	.	8f#/	.	.	.	.	.	.	.
4DD/	.	.	8a/	.	8d/	.	.	.	.	.	4dd\	4ff#\
.	.	.	8f#/J	.	8f#/J	.	.	.	.	.	.	.
=134	=134	=134	=134	=134	=134	=134	=134	=134	=134	=134	=134	=134
!	!	!	!	!	!	!	!LO:LB:g=original	!	!	!	!	!
4GG/	.	.	4g/	.	8g/L	.	4GG/	-ſte	8g\	-ſte	4dd\	4gg\
.	.	.	.	.	8g/	.	.	.	8g\	cum	.	.
4r	.	.	4r	.	8g/	.	4r	.	8g\	ſan-	4r	4r
.	.	.	.	.	8a/J	.	.	.	8a\	-cto	.	.
4r	.	.	4r	.	8b\L	.	4r	.	8b\	ſpi-	4r	4r
.	.	.	.	.	8cc#X\J	.	.	.	8cc#X\	-ri-	.	.
=135	=135	=135	=135	=135	=135	=135	=135	=135	=135	=135	=135	=135
8r	.	.	8r	.	8dd\L	.	8r	.	8dd\	-tu	8r	8r
8D\L	.	.	4f#/	.	8dd\J	.	8D\	Cu(m)	8dd\	in	8ff#\L	8aa\L
8D\	.	.	.	.	8dd\L	.	8D\	ſa(n)-	8dd\	glo-	8ff#\	8aa\
!	!	!	!	!	!LO:SIC:v:s=16cc\L	!	!	!	!	!	!	!
8E\J	.	.	8g/L	.	16cc#X\L	.	8E\	-cto	16cc\	-ri-	8ee\	8gg\
.	.	.	.	.	16b\JJ	.	.	.	16b\	-a	.	.
!LO:LB:g=original	!	!	!	!	!LO:SIC:v:s=8cc\L	!	!	!	!	!	!	!
8F#\L	.	.	8a/	.	8cc#X\L	.	8F#\	ſpi-	8cc\	De-	8ff#\	8aa\
8D\J	.	.	8f#/J	.	8a\J	.	8D\	-ri-	8a\	-i	8dd\J	8ff#\J
=136	=136	=136	=136	=136	=136	=136	=136	=136	=136	=136	=136	=136
!	!	!	!	!	!	!	!	!	!LO:LB:g=original	!	!	!
8G\L	.	.	4d/	.	4b\	.	8G\	-tu	4b\	Pa-	4gg\	4bb\
8G\	.	.	.	.	.	.	8G\	in	.	.	.	.
8G\	x 6	.	4d/	.	8g\L	.	8G\	glo-	8g\	-tris	4r	4r
8G\	.	.	.	.	8b\	.	16G\	-ri-	8b\L	a-	.	.
.	.	.	.	.	.	.	16G\	-a	.	.	.	.
8G\	x 5	.	4b\	.	8ee\	.	8G\	De-	8ee\	.	4ee\	4gg\
8G\J	.	.	.	.	8dd\J	.	8G\	-i	8dd\J	.	.	.
=137	=137	=137	=137	=137	=137	=137	=137	=137	=137	=137	=137	=137
4A\	.	.	4e/	.	8cc#X\L	.	4A\	Pa-	8cc#X\L	.	4a/	4ee\
.	.	.	.	.	8b\	.	.	.	8b\	.	.	.
8A\L	x 6	.	8r	.	8a\	.	8A\	-tris	8a\	.	8r	8r
8F#\	x 6	.	8a/L	.	8dd\J	.	8F#\	a-	8dd\	.	8dd\L	8ff#\L
8E\	.	.	8a/	.	8gg\L	.	8E\L	.	8gg\	.	8ee\	8gg\
8C#X\J	.	.	8a/J	.	8ee\J	.	8C#X\J	.	8ee\J	.	8ee\J	8gg\J
=138	=138	=138	=138	=138	=138	=138	=138	=138	=138	=138	=138	=138
!LO:TX:t=P:problem=mixed beam	!	!	!	!	!	!	!LO:TX:t=P:problem=mixed beam	!	!	!	!	!
8D\L	.	.	8f#/L	.	8aa\L	.	8D\L	.	8ff#\L	.	8ff#\L	8aa\L
8E\	x 5	.	8g/	.	8cc#X\J	.	8E\	.	8cc#X\	.	8ee\	8gg\
8F#\	.	.	8a/	.	8dd\L	.	8F#\	.	8dd\	.	8dd\	8ff#\
8G\	.	.	8b/J	.	8ee\	.	8G\	.	8ee\	.	8ee\J	8gg\J
8A\	x #	.	4e/	.	8a\	.	8A\	.	8a\	.	8a/L	8.ee\L
8AA/J	.	.	.	.	8cc#\J	.	8AA/J	.	8cc#\J	.	8a/J	.
.	.	.	.	.	.	.	.	.	.	.	.	16ee\Jk
=139	=139	=139	=139	=139	=139	=139	=139	=139	=139	=139	=139	=139
!	!	!	!LO:TX:t=P:problem=mixed beam	!	!	!	!	!	!	!	!	!
4D/	.	.	16f#/LL	.	16dd\LL	.	4D/	-men	4dd\	-men	4dd\	4ff#\
.	.	.	16ff#\	.	16aa\	.	.	.	.	.	.	.
.	.	.	16ff#\	.	16aa\	.	.	.	.	.	.	.
.	.	.	16ff#\JJ	.	16aa\JJ	.	.	.	.	.	.	.
4r	.	.	16ff#\LL	.	16aa\LL	.	4r	.	4r	.	8r	8r
.	.	.	16ff#\	.	16aa\	.	.	.	.	.	.	.
.	.	.	16ff#\	.	16aa\	.	.	.	.	.	16dd\LL	16dd\LL
.	.	.	16ff#\JJ	.	16aa\JJ	.	.	.	.	.	16dd\J	16dd\JJ
*	*	*	*	*	*	*	*	*	*	*ij	*	*
4d\	.	.	16aa\LL	.	16bb\LL	.	4d\	a-	4dd\	a-	8dd\	8dd\L
.	.	.	16aa\	.	16bb\	.	.	.	.	.	.	.
.	.	.	16aa\	.	16bb\	.	.	.	.	.	8dd\J	8dd\J
.	.	.	16aa\JJ	.	16bb\JJ	.	.	.	.	.	.	.
=140	=140	=140	=140	=140	=140	=140	=140	=140	=140	=140	=140	=140
!	!	!	!	!	!LO:LB:g=original	!	!	!	!	!	!	!
4D/	.	.	16ff#\LL	.	8aa\	.	4d\	-men	4dd\	-men	4dd\	4dd\
.	.	.	16ff#\	.	.	.	.	.	.	.	.	.
.	.	.	16ff#\	.	4aa\	.	.	.	.	.	.	.
.	.	.	16ff#\JJ	.	.	.	.	.	.	.	.	.
4r	.	.	16ff#\LL	.	.	.	4r	.	4r	.	8r	8r
.	.	.	16ff#\	.	.	.	.	.	.	.	.	.
.	.	.	16ff#\	.	16ff#\LL	.	.	.	.	.	16dd\LL	16dd\LL
.	.	.	16ff#\JJ	.	16dd\JJ	.	.	.	.	.	16dd\JJ	16dd\JJ
4d\	.	.	16gg\LL	.	8bb\L	.	4d\	a-	4dd\	a-	8dd\L	8dd\L
.	.	.	16gg\	.	.	.	.	.	.	.	.	.
.	.	.	16gg\	.	8bb\J	.	.	.	.	.	8dd\J	8dd\J
.	.	.	16gg\JJ	.	.	.	.	.	.	.	.	.
=141	=141	=141	=141	=141	=141	=141	=141	=141	=141	=141	=141	=141
!	!	!	!LO:LB:g=original	!	!	!	!LO:TX:t=P:problem=mixed beam	!	!	!	!	!LO:LB:g=original
8D\L	.	.	16ff#\LL	.	8aa\L	.	8d\L	.	4dd\	-men	4dd\	4dd\
*	*	*	*	*	*	*	*	*	*	*Xij	*	*
.	.	.	16dd\	.	.	.	.	.	.	.	.	.
8D\	.	.	16dd\	.	8ff#\	.	8D/	.	.	.	.	.
.	.	.	16dd\JJ	.	.	.	.	.	.	.	.	.
8E\	.	.	16dd\LL	.	8gg\	.	8E/	.	4r	.	4r	4r
.	.	.	16dd\	.	.	.	.	.	.	.	.	.
8F#\	.	.	16dd\	.	8aa\J	.	8F#/	.	.	.	.	.
.	.	.	16dd\JJ	.	.	.	.	.	.	.	.	.
8G\	.	.	16dd\LL	.	8bb\L	.	8G/	.	4r	.	4r	4r
.	.	.	16dd\	.	.	.	.	.	.	.	.	.
!	!	!	!	!	!LO:SIC:v:s=8ccc#\J	!	!	!	!	!	!	!
8A\J	.	.	16dd\	.	8ccc\J	.	8A/J	.	.	.	.	.
.	.	.	16dd\JJ	.	.	.	.	.	.	.	.	.
=142	=142	=142	=142	=142	=142	=142	=142	=142	=142	=142	=142	=142
!	!	!	!LO:TX:t=P:problem=mixed beam	!	!	!	!LO:LB:g=original	!	!	!	!LO:LB:g=original	!
8B\L	.	.	16dd\LL	.	8ddd\L	.	8B\L	.	8r	.	2.r	8r
.	.	.	16d/	.	.	.	.	.	.	.	.	.
8F#\	x 6	.	16d/	.	8dd\	.	8F#\	.	8dd\L	a-	.	8dd\L
.	.	.	16d/JJ	.	.	.	.	.	.	.	.	.
8G\	x 6	.	16d/LL	.	8ee\	.	8G\	.	8ee\	.	.	8ee\
.	.	.	16d/	.	.	.	.	.	.	.	.	.
8A\	x 6	.	16d/	.	8ff#\	.	8A\	.	8ff#\	.	.	8ff#\
.	.	.	16d/JJ	.	.	.	.	.	.	.	.	.
8B\	x 6	.	16d/LL	.	8gg\	.	8B\	.	8gg\	.	.	8gg\
.	.	.	16d/	.	.	.	.	.	.	.	.	.
8c\J	.	.	16e/	.	8aa\J	.	8c\J	.	8ee\J	.	.	8aa\J
.	.	.	16e/JJ	.	.	.	.	.	.	.	.	.
=143	=143	=143	=143	=143	=143	=143	=143	=143	=143	=143	=143	=143
!	!	!	!LO:TX:t=P:problem=mixed beam	!	!	!	!	!	!	!	!	!
8d\L	.	.	8d/L	.	8bb\L	.	8d\L	.	8ff#\L	.	8r	8bb\
8B\	.	.	8dd\J	.	8gg\	.	8B\	.	8gg\J	.	8dd\	4gg\
8c\	.	.	8ee\L	.	8ee\	.	8c\	.	4ee\	.	4ee\	.
8A\J	.	.	8cc\J	.	8cc\	.	8A\J	.	.	.	.	8aa\
!LO:TX:t=P:problem=mixed beam	!	!	!	!	!	!	!LO:TX:t=P:problem=mixed beam	!	!	!	!	!
8d\L	.	.	8a\L	.	8a\	.	8d\L	.	4ff#\	.	4dd\	4ff#\
8D/J	.	.	8f#\J	.	8f#\J	.	8D/J	.	.	.	.	.
=144!||:	=144	=144	=144	=144	=144!|:	=144	=144	=144	=144	=144	=144	=144
!LO:TX:t=P:problem=mixed beam	!	!	!	!	!	!	!	!	!	!	!	!
8G\L	.	.	16g/LL	.	16g/LL	.	4G\	-men	4gg\	-men	4dd\	4gg\
.	.	.	16g/	.	16g/	.	.	.	.	.	.	.
8GG/	x 3	.	16g/	.	16g/	.	.	.	.	.	.	.
.	.	.	16g/JJ	.	16g/JJ	.	.	.	.	.	.	.
8GG/	.	.	16b\LL	.	16dd\LL	.	4B\	a-	4dd\	a-	4r	4r
.	.	.	16b\	.	16dd\	.	.	.	.	.	.	.
8GG/	.	.	16b\	.	16dd\	.	.	.	.	.	.	.
.	.	.	16b\JJ	.	16dd\JJ	.	.	.	.	.	.	.
8GG/	6 4	.	16cc\LL	.	16ee\LL	.	4c\	-men	4ee\	-men	4r	4r
.	.	.	16cc\	.	16ee\	.	.	.	.	.	.	.
8GG/J	.	.	16cc\	.	16ee\	.	.	.	.	.	.	.
.	.	.	16cc\JJ	.	16ee\JJ	.	.	.	.	.	.	.
=145	=145	=145	=145	=145	=145	=145	=145	=145	=145	=145	=145	=145
8GG/L	x 3	.	16g/LL	.	16b\LL	.	4r	.	2b\	a-	1.r	1.r
.	.	.	16g/	.	16b\	.	.	.	.	.	.	.
8GG/	.	.	16g/	.	16b\	.	.	.	.	.	.	.
.	.	.	16g/JJ	.	16b\JJ	.	.	.	.	.	.	.
*	*	*	*	*	*	*	*	*ij	*	*	*	*
8GG/	.	.	16dd\LL	.	16b\LL	.	4d\	a-	.	.	.	.
.	.	.	16dd\	.	16b\	.	.	.	.	.	.	.
8GG/	6 4	.	16dd\	.	16b\	.	.	.	.	.	.	.
.	.	.	16dd\JJ	.	16b\JJ	.	.	.	.	.	.	.
8GG/	.	.	16ee\LL	.	16cc\LL	.	4e\	-men	4cc\	-men	.	.
.	.	.	16ee\	.	16cc\	.	.	.	.	.	.	.
8GG/J	.	.	16ee\	.	16cc\	.	.	.	.	.	.	.
.	.	.	16ee\JJ	.	16cc\JJ	.	.	.	.	.	.	.
=146:|!	=146	=146	=146	=146	=146:|!	=146	=146	=146	=146	=146	=146	=146
!LO:TX:t=P:problem=takty 146-147 zapisane repetycją	!	!	!	!	!	!	!	!	!	!	!	!
!LO:TX:t=P:problem=mixed beam	!	!	!	!	!LO:TX:t=P:problem=takty 146-147 zapisane repetycją	!	!	!LO:LB:g=original	!	!	!	!
8G/Lyy	.	.	16b\LL	.	16g/LLyy	.	2B\	a-	4r	.	.	.
.	.	.	16b\	.	16g/yy	.	.	.	.	.	.	.
8GG/yy	.	.	16b\	.	16g/yy	.	.	.	.	.	.	.
.	.	.	16b\JJ	.	16g/JJyy	.	.	.	.	.	.	.
*	*	*	*	*	*	*	*	*	*	*ij	*	*
8GG/yy	.	.	16b\LL	.	16dd\LLyy	.	.	.	4dd\	a-	.	.
.	.	.	16b\	.	16dd\yy	.	.	.	.	.	.	.
8GG/yy	.	.	16b\	.	16dd\yy	.	.	.	.	.	.	.
.	.	.	16b\JJ	.	16dd\JJyy	.	.	.	.	.	.	.
8GG/yy	.	.	16cc\LL	.	16ee\LLyy	.	4c\	-men	4ee\	-men	.	.
.	.	.	16cc\	.	16ee\yy	.	.	.	.	.	.	.
8GG/Jyy	.	.	16cc\	.	16ee\yy	.	.	.	.	.	.	.
.	.	.	16cc\JJ	.	16ee\JJyy	.	.	.	.	.	.	.
=147	=147	=147	=147	=147	=147	=147	=147	=147	=147	=147	=147	=147
8GG/Lyy	.	.	16g/LL	.	16b\LLyy	.	4r	.	2b\	a-	2.r	2.r
.	.	.	16g/	.	16b\yy	.	.	.	.	.	.	.
8GG/yy	.	.	16g/	.	16b\yy	.	.	.	.	.	.	.
*	*	*	*custos:a	*	*	*	*	*	*	*	*	*
.	.	.	16g/JJ	.	16b\JJyy	.	.	.	.	.	.	.
!	!	!	!LO:LB:g=original	!	!	!	!	!	!	!	!	!
8GG/yy	.	.	16dd\LL	.	16b\LLyy	.	4d\	a-	.	.	.	.
.	.	.	16dd\	.	16b\yy	.	.	.	.	.	.	.
8GG/yy	.	.	16dd\	.	16b\yy	.	.	.	.	.	.	.
.	.	.	16dd\JJ	.	16b\JJyy	.	.	.	.	.	.	.
8GG/yy	.	.	16ee\LL	.	16cc\LLyy	.	4e\	-men	4cc\	-men	.	.
.	.	.	16ee\	.	16cc\yy	.	.	.	.	.	.	.
8GG/Jyy	.	.	16ee\	.	16cc\yy	.	.	.	.	.	.	.
.	.	.	16ee\JJ	.	16cc\JJyy	.	.	.	.	.	.	.
*	*	*	*	*	*	*	*	*Xij	*	*Xij	*	*
=148	=148	=148	=148	=148	=148	=148	=148	=148	=148	=148	=148	=148
4BB/	.	.	16dd\LL	.	16dd\LL	.	4B\	a-	(4dd\	a-	4dd\	2gg\
.	.	.	16dd\	.	16dd\	.	.	.	.	.	.	.
.	.	.	16dd\	.	16dd\	.	.	.	.	.	.	.
.	.	.	16dd\JJ	.	16dd\JJ	.	.	.	.	.	.	.
4C/	.	.	16ee\LL	.	16ee\LL	.	4c\	.	4ee\)	.	4ee\	.
.	.	.	16ee\	.	16ee\	.	.	.	.	.	.	.
.	.	.	16ee\	.	16ee\	.	.	.	.	.	.	.
.	.	.	16ee\JJ	.	16ee\JJ	.	.	.	.	.	.	.
4D/	.	.	16ff#\LL	.	16ff#\LL	.	4d\	.	4ff#\	.	4dd\	4ff#\
.	.	.	16ff#\	.	16ff#\	.	.	.	.	.	.	.
.	.	.	16ff#\	.	16ff#\	.	.	.	.	.	.	.
.	.	.	16ff#\JJ	.	16ff#\JJ	.	.	.	.	.	.	.
=149	=149	=149	=149	=149	=149	=149	=149	=149	=149	=149	=149	=149
!	!	!	!LO:N:vis=16	!	!	!	!	!	!	!	!	!
4GG/	.	.	8gg\L	.	8gg\L	.	4G\	-men	4gg\	-men	4dd\	4gg\
!	!	!	!LO:N:vis=16	!	!	!	!	!	!	!	!	!
.	.	.	8ee\	.	8ee\	.	.	.	.	.	.	.
!	!	!	!LO:N:vis=16	!	!	!	!	!	!	!	!	!
4r	.	.	8cc\	.	8cc\	.	4r	.	4r	.	4r	4r
!	!	!	!LO:N:vis=16	!	!	!	!	!	!	!	!	!
.	.	.	8a\J	.	8a\J	.	.	.	.	.	.	.
!	!	!	!LO:TX:t=P:problem=mixed beam	!	!LO:TX:t=P:problem=mixed beam	!	!	!	!	!	!	!
4D/	.	.	8dd\L	.	8dd\L	.	4D\	a-	4ff#\	a-	4dd\	4ff#\
.	.	.	8d/J	.	8d/J	.	.	.	.	.	.	.
=150	=150	=150	=150	=150	=150	=150	=150	=150	=150	=150	=150	=150
4GG/	.	.	4g/	.	4g/	.	4G\	-men	4gg\	-men	4dd\	4gg\
4r	.	.	4r	.	4r	.	4r	.	4r	.	4r	2r
4r	.	.	4r	.	4r	.	4r	.	4r	.	4r	.
==151	==151	==151	==151	==151	==151	==151	==151	==151	==151	==151	==151	==151
*-	*-	*-	*-	*-	*-	*-	*-	*-	*-	*-	*-	*-
!!!system-decoration: [(g1)][(g2)][(g3)]s7
!!!RDF**kern: | = vertical stroke
!!!RDF**kern: > = above
!!!RDF**kern: < = below
!!!ENC: Andrzej Kubiczek
!!!END: 2020-12-20
!!!ENC: Krzysztof Stępień
!!!END: 2022-03-23
